!!!COM: Haydn, Franz Joseph
!!!OPR: London Symphonies
!!!OTL: Symphony no. 93 in D major
!!!SCT: Hob. I:93
!!!OMV: 2
!!!OMD: Largo cantabile
!!!ODT: 1791///
!!!MPD: 1792/02/17/
!!!ONB: Basses also play cello part (but not always)
!!!ONB: Cor in G was presumed to be sounding up from transposed part
**kern	**kern	**kern	**kern	**kern	**kern	**kern	**kern	**kern	**kern	**kern	**kern	**kern	**kern	**kern
*	*	*	*	*	*	*	*ITrd-4c-7	*ITrd-4c-7	*	*	*	*	*	*
*Icello	*Iviola	*Ivioln	*Ivioln	*Itimpa	*Itromp	*Itromp	*Icor	*Icor	*Ifagot	*Ifagot	*Ioboe	*Ioboe	*Iflt	*Iflt
*I"Violincello	*I"Viola	*I"Violino II	*I"Violino I	*I"Timpani	*I"Tromba 2 in C	*I"Tromba 1 in C	*I"Corno 2 in G	*I"Corno 1 in G	*I"Fagotto 2	*I"Fagotto 1	*I"Oboe 2	*I"Oboe 1	*I"Flauto 2	*I"Flauto 1
*	*	*I#2	*I#1	*	*I#2	*I#1	*I#2	*I#1	*I#2	*I#1	*I#2	*I#1	*I#2	*I#1
*staff10	*staff9	*staff8	*staff7	*staff6	*staff5	*staff5	*staff4	*staff4	*staff3	*staff3	*staff2	*staff2	*staff1	*staff1
*clefF4	*clefC3	*clefG2	*clefG2	*clefF4	*clefG2	*clefG2	*clefG2	*clefG2	*clefF4	*clefF4	*clefG2	*clefG2	*clefG2	*clefG2
*k[f#]	*k[f#]	*k[f#]	*k[f#]	*k[f#]	*k[f#]	*k[f#]	*k[f#]	*k[f#]	*k[f#]	*k[f#]	*k[f#]	*k[f#]	*k[f#]	*k[f#]
*G:	*G:	*G:	*G:	*G:	*G:	*G:	*G:	*G:	*G:	*G:	*G:	*G:	*G:	*G:
*M2/2	*M2/2	*M2/2	*M2/2	*M2/2	*M2/2	*M2/2	*M2/2	*M2/2	*M2/2	*M2/2	*M2/2	*M2/2	*M2/2	*M2/2
*MM72	*MM72	*MM72	*MM72	*MM72	*MM72	*MM72	*MM72	*MM72	*MM72	*MM72	*MM72	*MM72	*MM72	*MM72
=1-	=1-	=1-	=1-	=1-	=1-	=1-	=1-	=1-	=1-	=1-	=1-	=1-	=1-	=1-
1r	4d	4B	4g	1r	1r	1r	1r	1r	1r	1r	1r	1r	1r	1r
.	4r	4r	8d'	.	.	.	.	.	.	.	.	.	.	.
.	.	.	16r	.	.	.	.	.	.	.	.	.	.	.
.	.	.	16b'	.	.	.	.	.	.	.	.	.	.	.
.	4d	4B	4g	.	.	.	.	.	.	.	.	.	.	.
.	4r	4r	8d'	.	.	.	.	.	.	.	.	.	.	.
.	.	.	16r	.	.	.	.	.	.	.	.	.	.	.
.	.	.	16gg'	.	.	.	.	.	.	.	.	.	.	.
=2	=2	=2	=2	=2	=2	=2	=2	=2	=2	=2	=2	=2	=2	=2
1r	4g	4e	4dd	1r	1r	1r	1r	1r	1r	1r	1r	1r	1r	1r
.	4a	4f#	8.ccT	.	.	.	.	.	.	.	.	.	.	.
.	.	.	32b	.	.	.	.	.	.	.	.	.	.	.
.	.	.	32cc	.	.	.	.	.	.	.	.	.	.	.
.	8d	8g	8b	.	.	.	.	.	.	.	.	.	.	.
.	8r	8r	8r	.	.	.	.	.	.	.	.	.	.	.
.	4r	4r	8.r	.	.	.	.	.	.	.	.	.	.	.
.	.	.	16ee'	.	.	.	.	.	.	.	.	.	.	.
=3	=3	=3	=3	=3	=3	=3	=3	=3	=3	=3	=3	=3	=3	=3
1r	4c	4e	4b	1r	1r	1r	1r	1r	1r	1r	1r	1r	1r	1r
.	4r	4r	8a'	.	.	.	.	.	.	.	.	.	.	.
.	.	.	16r	.	.	.	.	.	.	.	.	.	.	.
.	.	.	16ee'	.	.	.	.	.	.	.	.	.	.	.
.	4B	4d	4a	.	.	.	.	.	.	.	.	.	.	.
.	4r	4r	8g'	.	.	.	.	.	.	.	.	.	.	.
.	.	.	16r	.	.	.	.	.	.	.	.	.	.	.
.	.	.	16d	.	.	.	.	.	.	.	.	.	.	.
=4	=4	=4	=4	=4	=4	=4	=4	=4	=4	=4	=4	=4	=4	=4
1r	8d	8a	8cc'	1r	1r	1r	1r	1r	1r	1r	1r	1r	1r	1r
.	8r	8r	16r	.	.	.	.	.	.	.	.	.	.	.
.	.	.	16dd	.	.	.	.	.	.	.	.	.	.	.
.	8d	8g	8b'	.	.	.	.	.	.	.	.	.	.	.
.	8r	8r	16r	.	.	.	.	.	.	.	.	.	.	.
.	.	.	16cc	.	.	.	.	.	.	.	.	.	.	.
.	8d	8f#	8a	.	.	.	.	.	.	.	.	.	.	.
.	8r	8r	8r	.	.	.	.	.	.	.	.	.	.	.
.	4r	4r	4r	.	.	.	.	.	.	.	.	.	.	.
=5	=5	=5	=5	=5	=5	=5	=5	=5	=5	=5	=5	=5	=5	=5
1r	4d	4B	4g	1r	1r	1r	1r	1r	1r	1r	1r	1r	1r	1r
.	4r	4r	8d'	.	.	.	.	.	.	.	.	.	.	.
.	.	.	16r	.	.	.	.	.	.	.	.	.	.	.
.	.	.	16b'	.	.	.	.	.	.	.	.	.	.	.
.	4d	4B	4g	.	.	.	.	.	.	.	.	.	.	.
.	4r	4r	8d'	.	.	.	.	.	.	.	.	.	.	.
.	.	.	16r	.	.	.	.	.	.	.	.	.	.	.
.	.	.	16gg'	.	.	.	.	.	.	.	.	.	.	.
=6	=6	=6	=6	=6	=6	=6	=6	=6	=6	=6	=6	=6	=6	=6
1r	4g	4e	4dd	1r	1r	1r	1r	1r	1r	1r	1r	1r	1r	1r
.	4a	4f#	8.ccT	.	.	.	.	.	.	.	.	.	.	.
.	.	.	32b	.	.	.	.	.	.	.	.	.	.	.
.	.	.	32cc	.	.	.	.	.	.	.	.	.	.	.
.	8d	8g	8b	.	.	.	.	.	.	.	.	.	.	.
.	8r	8r	8r	.	.	.	.	.	.	.	.	.	.	.
.	4r	4r	8.r	.	.	.	.	.	.	.	.	.	.	.
.	.	.	16ee	.	.	.	.	.	.	.	.	.	.	.
=7	=7	=7	=7	=7	=7	=7	=7	=7	=7	=7	=7	=7	=7	=7
1r	[2B	2d#	4b	1r	1r	1r	1r	1r	1r	1r	1r	1r	1r	1r
.	.	.	8a'	.	.	.	.	.	.	.	.	.	.	.
.	.	.	16r	.	.	.	.	.	.	.	.	.	.	.
.	.	.	16ff#	.	.	.	.	.	.	.	.	.	.	.
.	4B]	4e	4a	.	.	.	.	.	.	.	.	.	.	.
.	8.r	8.r	8g'	.	.	.	.	.	.	.	.	.	.	.
.	.	.	16r	.	.	.	.	.	.	.	.	.	.	.
.	16c#	16gg	16bb	.	.	.	.	.	.	.	.	.	.	.
=8	=8	=8	=8	=8	=8	=8	=8	=8	=8	=8	=8	=8	=8	=8
1r	8d'	8ff#'	8aa'	1r	1r	1r	1r	1r	1r	1r	1r	1r	1r	1r
.	16r	16r	16r	.	.	.	.	.	.	.	.	.	.	.
.	16b	16ee	16gg	.	.	.	.	.	.	.	.	.	.	.
.	8a'	8dd'	8ff#'	.	.	.	.	.	.	.	.	.	.	.
.	16r	16r	16r	.	.	.	.	.	.	.	.	.	.	.
.	16g	16cc#	16ee	.	.	.	.	.	.	.	.	.	.	.
.	8f#	8dd	8dd	.	.	.	.	.	.	.	.	.	.	.
.	8r	8r	8r	.	.	.	.	.	.	.	.	.	.	.
.	4r	4r	4r	.	.	.	.	.	.	.	.	.	.	.
=9	=9	=9	=9	=9	=9	=9	=9	=9	=9	=9	=9	=9	=9	=9
4G	4d	4B	4g	1r	1r	1r	1r	1r	1ryy	4G	1r	1r	1r	1r
4r	4r	4r	8d'	.	.	.	.	.	.	8D'	.	.	.	.
.	.	.	16r	.	.	.	.	.	.	16r	.	.	.	.
.	.	.	16b'	.	.	.	.	.	.	16B'	.	.	.	.
4G	4d	4B	4g	.	.	.	.	.	.	4G	.	.	.	.
4r	4r	4r	8d'	.	.	.	.	.	.	8D'	.	.	.	.
.	.	.	16r	.	.	.	.	.	.	16r	.	.	.	.
.	.	.	16gg'	.	.	.	.	.	.	16g'	.	.	.	.
=10	=10	=10	=10	=10	=10	=10	=10	=10	=10	=10	=10	=10	=10	=10
[2G	4g	4e	4dd	1r	1r	1r	1r	1r	1ryy	4d	1r	1r	1r	1r
.	4a	4f#	8.ccT	.	.	.	.	.	.	8.cT	.	.	.	.
.	.	.	32b	.	.	.	.	.	.	32B	.	.	.	.
.	.	.	32cc	.	.	.	.	.	.	32c	.	.	.	.
8G]	8d	8g	8b	.	.	.	.	.	.	8B	.	.	.	.
8r	8r	8r	8r	.	.	.	.	.	.	8r	.	.	.	.
4r	4r	4r	8.r	.	.	.	.	.	.	8.r	.	.	.	.
.	.	.	16ee'	.	.	.	.	.	.	16e'	.	.	.	.
=11	=11	=11	=11	=11	=11	=11	=11	=11	=11	=11	=11	=11	=11	=11
4c	4c	4e	4b	1r	1r	1r	1r	1r	1ryy	4B	1r	1r	1r	1r
4r	4r	4r	8a'	.	.	.	.	.	.	8A'	.	.	.	.
.	.	.	16r	.	.	.	.	.	.	16r	.	.	.	.
.	.	.	16ee'	.	.	.	.	.	.	16e'	.	.	.	.
4B	4B	4d	4a	.	.	.	.	.	.	4A	.	.	.	.
4r	4r	4r	8g'	.	.	.	.	.	.	8G'	.	.	.	.
.	.	.	16r	.	.	.	.	.	.	16r	.	.	.	.
.	.	.	16d	.	.	.	.	.	.	16D	.	.	.	.
=12	=12	=12	=12	=12	=12	=12	=12	=12	=12	=12	=12	=12	=12	=12
8F#	8d	8a	8cc'	1r	1r	1r	1r	1r	1ryy	8c'	1r	1r	1r	1r
8r	8r	8r	16r	.	.	.	.	.	.	16r	.	.	.	.
.	.	.	16dd	.	.	.	.	.	.	16d	.	.	.	.
8G	8d	8g	8b'	.	.	.	.	.	.	8B'	.	.	.	.
8r	8r	8r	16r	.	.	.	.	.	.	16r	.	.	.	.
.	.	.	16cc	.	.	.	.	.	.	16c	.	.	.	.
8D	8d	8f#	8a	.	.	.	.	.	.	8A	.	.	.	.
8r	8r	8r	8r	.	.	.	.	.	.	8r	.	.	.	.
4r	4r	4r	4r	.	.	.	.	.	.	4r	.	.	.	.
=13	=13	=13	=13	=13	=13	=13	=13	=13	=13	=13	=13	=13	=13	=13
4G	4d	4B	4g	1r	1r	1r	1r	1r	1ryy	4G	1r	1r	1r	1r
4r	4r	4r	8d'	.	.	.	.	.	.	8D'	.	.	.	.
.	.	.	16r	.	.	.	.	.	.	16r	.	.	.	.
.	.	.	16b'	.	.	.	.	.	.	16B'	.	.	.	.
4G	4d	4B	4g	.	.	.	.	.	.	4G	.	.	.	.
4r	4r	4r	8d'	.	.	.	.	.	.	8D'	.	.	.	.
.	.	.	16r	.	.	.	.	.	.	16r	.	.	.	.
.	.	.	16gg'	.	.	.	.	.	.	16g'	.	.	.	.
=14	=14	=14	=14	=14	=14	=14	=14	=14	=14	=14	=14	=14	=14	=14
[2G	4g	4e	4dd	1r	1r	1r	1r	1r	1ryy	4d	1r	1r	1r	1r
.	4a	4f#	8.ccT	.	.	.	.	.	.	8.cT	.	.	.	.
.	.	.	32b	.	.	.	.	.	.	32B	.	.	.	.
.	.	.	32cc	.	.	.	.	.	.	32c	.	.	.	.
8G]	8d	8g	8b	.	.	.	.	.	.	8B	.	.	.	.
8r	8r	8r	8r	.	.	.	.	.	.	8r	.	.	.	.
4r	4r	4r	8.r	.	.	.	.	.	.	8.r	.	.	.	.
.	.	.	16ee'	.	.	.	.	.	.	16e'	.	.	.	.
=15	=15	=15	=15	=15	=15	=15	=15	=15	=15	=15	=15	=15	=15	=15
2F#	[2B	2d#	4b	1r	1r	1r	1r	1r	1ryy	4B	1r	1r	1r	1r
.	.	.	8a'	.	.	.	.	.	.	8A'	.	.	.	.
.	.	.	16r	.	.	.	.	.	.	16r	.	.	.	.
.	.	.	16ff#'	.	.	.	.	.	.	16f#'	.	.	.	.
4E	4B]	4e	4a	.	.	.	.	.	.	4A	.	.	.	.
8.r	8.r	8.r	8g'	.	.	.	.	.	.	8G'	.	.	.	.
.	.	.	16r	.	.	.	.	.	.	16r	.	.	.	.
16c#	16c#	16gg	16bb	.	.	.	.	.	.	16B	.	.	.	.
=16	=16	=16	=16	=16	=16	=16	=16	=16	=16	=16	=16	=16	=16	=16
8d'	8d'	8ff#'	8aa'	1r	1r	1r	1r	1r	1ryy	8A'	1r	1r	1r	1r
16r	16r	16r	16r	.	.	.	.	.	.	16r	.	.	.	.
16G	16b	16ee	16gg	.	.	.	.	.	.	16g	.	.	.	.
8A'	8a'	8dd'	8ff#'	.	.	.	.	.	.	8f#'	.	.	.	.
16r	16r	16r	16r	.	.	.	.	.	.	16r	.	.	.	.
16AA	16g	16cc#	16ee	.	.	.	.	.	.	16e	.	.	.	.
8D	8f#	8dd	8dd	.	.	.	.	.	.	8d	.	.	.	.
8r	8r	8r	8r	.	.	.	.	.	.	8r	.	.	.	.
4r	4r	4r	4r	.	.	.	.	.	.	4r	.	.	.	.
=17	=17	=17	=17	=17	=17	=17	=17	=17	=17	=17	=17	=17	=17	=17
4B-	4B-	4G 4g	4dd	4GG	4g	4dd	4d	4dd	4B-	4B-	4dd	4dd	4ddd	4ddd
8G	8d	8b-	8gg	8.r	8.ryy	8.r	8.ryy	8.r	8G	8G	8b-	8gg	8gg	8gg
16r	16r	16r	16r	.	.	.	.	.	16r	16r	16ryy	16r	16r	16r
16B-	16d	16dd	16gg'	16GG	16g	16dd	16d	16dd	16B-'	16B-'	16dd'y	16gg'	16gg	16gg
8.At	8.d	8.ccT	8.ff#t	8.D	8.dd	8.dd	8.d	8.dd	8.At	8.At	8.ddTy	8.ff#t	8.ff#t	8.ff#t
16G	16d	16b-	16gg	16D	16dd	16dd	16d	16dd	16G	16G	16dd	16gg	16gg	16gg
8F#	8d	8a	8aa	8.D	8.dd	8.dd	8.d	8.dd	8F#	8F#	8dd	8aa	8aa	8aa
8r	8r	8r	8r	.	.	.	.	.	8r	8r	8ryy	8r	8r	8r
.	.	.	.	16D	16dd	16dd	16d	16dd	.	.	.	.	.	.
=18	=18	=18	=18	=18	=18	=18	=18	=18	=18	=18	=18	=18	=18	=18
4B-z	4B-z	[8gz	8ddz	4GG	4g	4dd	4d	4dd	4dz	4dz	4dd	8ddz	8ddz	8ddz
.	.	32g]	32ee	.	.	.	.	.	.	.	.	32ee	32ee	32ee
.	.	32a	32ff#X	.	.	.	.	.	.	.	.	32ff#X	32ff#X	32ff#X
.	.	32b-	32gg	.	.	.	.	.	.	.	.	32gg	32gg	32gg
.	.	32cc	32aa	.	.	.	.	.	.	.	.	32aa	32aa	32aa
8G	8G	8dd	8bb-	8.r	8.ryy	8.r	8.ryy	8.r	8B-	8B-	8b-	8bb-X	8bb-	8bb-
16r	16r	16r	16r	.	.	.	.	.	16r	16r	16ryy	16r	16r	16r
16G'	16G'	16gg'	16bb-'	16GG	16g	16dd	16d	16dd	16d	16d	16dd'y	16bb-'	16bb-	16bb-
8.d	8.d	8.ff#Xt	8.aat	8.D	8.dd	8.dd	8.d	8.dd	8.cT	8.cT	8.ccTy	8.aat	8.aat	8.aat
16D	16d	16gg	16bb-	16D	16dd	16dd	16d	16dd	16B-	16B-	16b-	16bb-	16bb-	16bb-
8D	8d	8aa	8ccc	8.D	8.dd	8.dd	8.d	8.dd	8A	8A	8a	8ccc	8ccc	8ccc
8r	8r	8r	8r	.	.	.	.	.	8r	8r	8ryy	8r	8r	8r
.	.	.	.	16D	16dd	16dd	16d	16dd	.	.	.	.	.	.
=19	=19	=19	=19	=19	=19	=19	=19	=19	=19	=19	=19	=19	=19	=19
8.B-	8.b-	[8g	16dd	4GG	4g	4g	4d	4dd	4B-	4B-	4dd	16dd	16dd	16dd
.	.	.	32ee	.	.	.	.	.	.	.	.	32ee	32ee	32ee
.	.	.	32ff#	.	.	.	.	.	.	.	.	32ff#	32ff#	32ff#
.	.	32g]	32gg	.	.	.	.	.	.	.	.	32gg	32gg	32gg
.	.	32a	32aa	.	.	.	.	.	.	.	.	32aa	32aa	32aa
32G	32g	32b-	32bb-	.	.	.	.	.	.	.	.	32bb-	32bb-	32bb-
32D	32d	32cc	32ccc	.	.	.	.	.	.	.	.	32ccc	32ccc	32ccc
8.BB-X	8.B-X	8.dd	8.ddd	4r	8.g	8.g	8.g	8.gg	8.G	8.G	8.dd	8.ddd	8.ddd	8.ddd
16BB-	16g	16dd	16ddd	.	16g	16g	16g	16gg	16G	16G	16dd	16ddd	16ddd	16ddd
8.E-	8.g	8.ccT	8.cccT	2r	8.g	8.g	8.g	8.gg	8.G	8.G	8.gg	8.cccT	8.cccT	8.cccT
16D	16g	16b-	16bb-	.	16g	16g	16g	16gg	16G	16G	16gg	16bb-	16bb-	16bb-
8.C	8.g	8.at	8.aat	.	8.g	8.g	8.g	8.gg	8.G	8.G	8.gg	8.aat	8.aat	8.aat
16C	16en	16g	16gg	.	16g	16g	16g	16gg	16G	16G	16gg	16gg	16gg	16gg
=20	=20	=20	=20	=20	=20	=20	=20	=20	=20	=20	=20	=20	=20	=20
4D	4d	8.f#Xt	8.ff#Xt	4D	4dd	4dd	4d	4dd	4D	4D	8.ff#Xt	8.ff#Xt	8.ff#Xt	8.ff#Xt
.	.	16e	16ee	.	.	.	.	.	.	.	16ee	16ee	16ee	16ee
8.r	8.r	8.d	8.dd	4r	4r	4r	4ryy	4r	8r	8r	8.dd	8.dd	8.dd	8.dd
.	.	.	.	.	.	.	.	.	16r	16r	.	.	.	.
16D	16d	16d	16d	.	.	.	.	.	16D	16D	16dd	16dd	16dd	16dd
8.E-T	8.e-T	8.e-T	8.e-T	2r	2r	2r	2ryy	2r	8.E-T	8.E-T	8.ee-T	8.ee-T	8.ee-T	8.ee-T
16D	16d	16d	16d	.	.	.	.	.	16D	16D	16dd	16dd	16dd	16dd
8.E-	8.e-	8.e-	8.e-	.	.	.	.	.	8.E-	8.E-	8.ee-	8.ee-	8.ee-	8.ee-
16C#	16c#	16c#	16c#	.	.	.	.	.	16C#	16C#	16cc#	16cc#	16cc#	16cc#
=21	=21	=21	=21	=21	=21	=21	=21	=21	=21	=21	=21	=21	=21	=21
4D	4d	4d	4d	4D	4dd	4dd	4d	4dd	4D	4D	4dd	4dd	4dd	4dd
8.r	8.r	8r	8.r	8.r	8.ryy	8.ryy	8.ryy	8.r	8.r	8.r	8.r	8.r	8.r	8.r
.	.	16r	.	.	.	.	.	.	.	.	.	.	.	.
16D	16d	16d	16d	16D	16dd	16dd	16d	16dd	16d	16d	16dd	16dd	16ddd	16ddd
8.BB-T	8.B-T	8.B-T	8.B-T	8.GG	8.dd	8.dd	8.g	8.gg	8.B-T	8.B-T	8.b-T	8.b-T	8.bb-T	8.bb-T
16AA	16A	16A	16A	16GG	16dd	16dd	16g	16gg	16A	16A	16a	16a	16aa	16aa
8.BB-	8.B-	8.B-	8.B-	8.GG	8.g	8.gg	8.g	8.gg	8.B-	8.B-	8.b-	8.b-	8.bb-	8.bb-
16GG	16G	16G	16G	16GG	16g	16gg	16g	16gg	16G	16G	16g	16g	16gg	16gg
=22	=22	=22	=22	=22	=22	=22	=22	=22	=22	=22	=22	=22	=22	=22
4D	4d	4d	4d	4D	4dd	4dd	4d	4dd	4D	4D	4dd	4dd	4ddd	4ddd
4r	4r	4r	4r	4r	4ryy	4r	4ryy	4r	4r	4r	4r	4r	4r	4r
2r	2r	2r	2r	2r	2ryy	2r	2ryy	2r	2r	2r	2r	2r	2r	2r
=23	=23	=23	=23	=23	=23	=23	=23	=23	=23	=23	=23	=23	=23	=23
4G	4d	4Bn	4g	1r	1r	1r	1r	1r	1r	1r	1r	1r	1r	1r
4r	4r	4r	8d'	.	.	.	.	.	.	.	.	.	.	.
.	.	.	16r	.	.	.	.	.	.	.	.	.	.	.
.	.	.	16bn'	.	.	.	.	.	.	.	.	.	.	.
4G	4d	4B	4g	.	.	.	.	.	.	.	.	.	.	.
4r	4r	4r	8d	.	.	.	.	.	.	.	.	.	.	.
.	.	.	16r	.	.	.	.	.	.	.	.	.	.	.
.	.	.	16gg'	.	.	.	.	.	.	.	.	.	.	.
=24	=24	=24	=24	=24	=24	=24	=24	=24	=24	=24	=24	=24	=24	=24
[2G	4g	4e	4dd	1r	1r	1r	1r	1r	1r	1r	1r	1r	1r	1r
.	4a	4f#	8.ccT	.	.	.	.	.	.	.	.	.	.	.
.	.	.	32b	.	.	.	.	.	.	.	.	.	.	.
.	.	.	32cc	.	.	.	.	.	.	.	.	.	.	.
8G]	8d	8g	8b	.	.	.	.	.	.	.	.	.	.	.
8r	8r	8r	8r	.	.	.	.	.	.	.	.	.	.	.
4r	4r	4r	8.r	.	.	.	.	.	.	.	.	.	.	.
.	.	.	16ee'	.	.	.	.	.	.	.	.	.	.	.
=25	=25	=25	=25	=25	=25	=25	=25	=25	=25	=25	=25	=25	=25	=25
4d	4fn	4g#	4b	1r	1r	1r	1r	1r	1r	1r	1r	1r	1r	1r
8c'	8e'	8a'	8cc'	.	.	.	.	.	.	.	.	.	.	.
8r	8r	8r	16r	.	.	.	.	.	.	.	.	.	.	.
.	.	.	16ccc'	.	.	.	.	.	.	.	.	.	.	.
4D	4a	4cc	4ff#	.	.	.	.	.	.	.	.	.	.	.
8E'	8g'	8b'	8gg'	.	.	.	.	.	.	.	.	.	.	.
16r	16r	16r	16r	.	.	.	.	.	.	.	.	.	.	.
16B	16B	16dd	16gg#	.	.	.	.	.	.	.	.	.	.	.
=26	=26	=26	=26	=26	=26	=26	=26	=26	=26	=26	=26	=26	=26	=26
8c'	8c'	8ee'	8aa'	1r	1r	1r	1r	1r	1r	1r	1r	1r	1r	1r
16r	16r	16r	16r	.	.	.	.	.	.	.	.	.	.	.
16B	16d	16dd	16bb	.	.	.	.	.	.	.	.	.	.	.
8A'	8e'	8cc'	8ccc'	.	.	.	.	.	.	.	.	.	.	.
16r	16r	16r	16r	.	.	.	.	.	.	.	.	.	.	.
16D	16c	16a	16ff#	.	.	.	.	.	.	.	.	.	.	.
8G	8B	8b	8ggn	.	.	.	.	.	.	.	.	.	.	.
8r	8r	8r	8r	.	.	.	.	.	.	.	.	.	.	.
4r	4r	4r	8.r	.	.	.	.	.	.	.	.	.	.	.
.	.	.	16G'	.	.	.	.	.	.	.	.	.	.	.
=27	=27	=27	=27	=27	=27	=27	=27	=27	=27	=27	=27	=27	=27	=27
4BB	4G	4d	4fn	1r	1r	1r	1r	1r	1r	1r	1r	1r	1r	1r
8C	8G'	8c'	8e'	.	.	.	.	.	.	.	.	.	.	.
8r	8r	8r	16r	.	.	.	.	.	.	.	.	.	.	.
.	.	.	16g'	.	.	.	.	.	.	.	.	.	.	.
4Fn	4D	4G	4B	.	.	.	.	.	.	.	.	.	.	.
8E	8E'	8c'	8c'	.	.	.	.	.	.	.	.	.	.	.
8r	8r	8r	16r	.	.	.	.	.	.	.	.	.	.	.
.	.	.	16G'	.	.	.	.	.	.	.	.	.	.	.
=28	=28	=28	=28	=28	=28	=28	=28	=28	=28	=28	=28	=28	=28	=28
1r	4r	1cc	2.ee	1r	1r	1r	1r	1r	1r	1r	1r	1r	1r	1r
.	8.r	.	.	.	.	.	.	.	.	.	.	.	.	.
.	16A	.	.	.	.	.	.	.	.	.	.	.	.	.
.	2f#X	.	.	.	.	.	.	.	.	.	.	.	.	.
.	.	.	8.r	.	.	.	.	.	.	.	.	.	.	.
.	.	.	16ee'	.	.	.	.	.	.	.	.	.	.	.
=29	=29	=29	=29	=29	=29	=29	=29	=29	=29	=29	=29	=29	=29	=29
1r	8g	8b	12dd	1r	1r	1r	1r	1r	1r	1r	1r	1r	1r	1r
.	.	.	12gg	.	.	.	.	.	.	.	.	.	.	.
.	8r	8r	.	.	.	.	.	.	.	.	.	.	.	.
.	.	.	12dd#	.	.	.	.	.	.	.	.	.	.	.
.	8c	8g	12ff#	.	.	.	.	.	.	.	.	.	.	.
.	.	.	12ee	.	.	.	.	.	.	.	.	.	.	.
.	8r	8r	.	.	.	.	.	.	.	.	.	.	.	.
.	.	.	12cc	.	.	.	.	.	.	.	.	.	.	.
.	8d	8B 8g	12b	.	.	.	.	.	.	.	.	.	.	.
.	.	.	12g	.	.	.	.	.	.	.	.	.	.	.
.	8r	8r	.	.	.	.	.	.	.	.	.	.	.	.
.	.	.	12dn	.	.	.	.	.	.	.	.	.	.	.
.	8d	8A 8f#	12c	.	.	.	.	.	.	.	.	.	.	.
.	.	.	12A	.	.	.	.	.	.	.	.	.	.	.
.	8r	8r	.	.	.	.	.	.	.	.	.	.	.	.
.	.	.	12f#	.	.	.	.	.	.	.	.	.	.	.
=30	=30	=30	=30	=30	=30	=30	=30	=30	=30	=30	=30	=30	=30	=30
4GG'	12G	12G	12G	12GG	12g	[12dd	12b	12gg	12G	12G	12b	[12gg	12gg	[12gg
.	12G	12B	12d	12GG	12g	12dd]	12b	12gg	12D	12D	12b	12gg]	12gg	12gg]
.	12G	12B	12d	12GG	12g	12dd	12b	12gg	12BB	12BB	12b	12gg	12gg	12gg
4BB'	12G	12B	12d	4GG	4g	4dd	4b	4gg	4GG	4GG	4b	4gg	4gg	4gg
.	12G	12B	12d	.	.	.	.	.	.	.	.	.	.	.
.	12G	12B	12d	.	.	.	.	.	.	.	.	.	.	.
4D'	12G	12B	12d	12GG	2ryy	2r	2ryy	2r	2r	2r	2ryy	2r	2r	2r
.	12G	12B	12d	12GG	.	.	.	.	.	.	.	.	.	.
.	12G	12B	12d	12GG	.	.	.	.	.	.	.	.	.	.
4BB'	12G	12B	12d	12GG	.	.	.	.	.	.	.	.	.	.
.	12G	12B	12d	12GG	.	.	.	.	.	.	.	.	.	.
.	12G	12B	12d	12GG	.	.	.	.	.	.	.	.	.	.
=31	=31	=31	=31	=31	=31	=31	=31	=31	=31	=31	=31	=31	=31	=31
4GG'	12G	12B	12d	12GG	12g	[12dd	12b	12gg	12G	12G	12b	[2dd	12dd	[12dd
.	12G	12B	12d	12GG	12g	12dd]	12b	12gg	12D	12D	12b	.	12dd	12dd]
.	12G	12B	12d	12GG	12g	12dd	12b	12gg	12BB	12BB	12b	.	12dd	12dd
4BB'	12G	12B	12d	4GG	4g	4dd	4b	4gg	4GG	4GG	4b	.	4dd	4dd
.	12G	12B	12d	.	.	.	.	.	.	.	.	.	.	.
.	12G	12B	12d	.	.	.	.	.	.	.	.	.	.	.
4D'	12G	12B	12d	2r	2ryy	2r	2ryy	2r	2r	2r	2r	12dd]	2r	2r
.	12G	12B	12d	.	.	.	.	.	.	.	.	12ee'	.	.
.	12G	12B	12d	.	.	.	.	.	.	.	.	12ff#'	.	.
4BB'	12G	12B	12d	.	.	.	.	.	.	.	.	12gg'	.	.
.	12G	12B	12d	.	.	.	.	.	.	.	.	12aa'	.	.
.	12G	12B	12d	.	.	.	.	.	.	.	.	12bb'	.	.
=32	=32	=32	=32	=32	=32	=32	=32	=32	=32	=32	=32	=32	=32	=32
4FF#'	12F#	12A	12c 12d	12D	12dd	12dd	12dd	12aa	12D	12D	12a	12ccc	12ccc	12ccc
.	12F#	12A	12c 12d	12D	12dd	12dd	12dd	12aa	12F#	12F#	12cc	12aa	12aa	12aa
.	12F#	12A	12c 12d	12D	12dd	12dd	12dd	12aa	12A'	12A'	12a'y	12ff#'	12ff#	12ff#
4AA'	12F#	12A	12c 12d	4D	4dd	4dd	4dd	4aa	4c	4c	4f#	4dd	4dd	4dd
.	12F#	12A	12c 12d	.	.	.	.	.	.	.	.	.	.	.
.	12F#	12A	12c 12d	.	.	.	.	.	.	.	.	.	.	.
4D'	12F#	12A	12c 12d	2r	2r	2r	2ryy	2r	2r	2r	2ryy	2r	2r	2r
.	12F#	12A	12c 12d	.	.	.	.	.	.	.	.	.	.	.
.	12F#	12A	12c 12d	.	.	.	.	.	.	.	.	.	.	.
4AA'	12F#	12A	12c 12d	.	.	.	.	.	.	.	.	.	.	.
.	12F#	12A	12c 12d	.	.	.	.	.	.	.	.	.	.	.
.	12F#	12A	12c 12d	.	.	.	.	.	.	.	.	.	.	.
=33	=33	=33	=33	=33	=33	=33	=33	=33	=33	=33	=33	=33	=33	=33
4FF#'	12F#	12A	12c 12d	12D	12dd	12dd	12dd	12aa	12F#	12F#	12a	[2dd	12cc	12cc
.	12F#	12A	12c 12d	12D	12dd	12dd	12dd	12aa	12F#	12F#	12a	.	12cc	12cc
.	12F#	12A	12c 12d	12D	12dd	12dd	12dd	12aa	12F#	12F#	12a	.	12cc	12cc
4AA'	12F#	12A	12c 12d	4D	4dd	4dd	4dd	4aa	4F#	4F#	4a	.	4cc	4cc
.	12F#	12A	12c 12d	.	.	.	.	.	.	.	.	.	.	.
.	12F#	12A	12c 12d	.	.	.	.	.	.	.	.	.	.	.
4D'	12F#	12A	12c 12d	2r	2r	2r	2ryy	2r	2r	2r	2r	12dd]	2r	2r
.	12F#	12A	12c 12d	.	.	.	.	.	.	.	.	12ff#'	.	.
.	12F#	12A	12c 12d	.	.	.	.	.	.	.	.	12gg'	.	.
4FF#'	12F#	12A	12c 12d	.	.	.	.	.	.	.	.	12aa'	.	.
.	12F#	12A	12c 12d	.	.	.	.	.	.	.	.	12bb'	.	.
.	12F#	12A	12c 12d	.	.	.	.	.	.	.	.	12ccc'	.	.
=34	=34	=34	=34	=34	=34	=34	=34	=34	=34	=34	=34	=34	=34	=34
4GG	12G	12B	12B 12d	12GG	12g	[12dd	12gg	[12bb	4G	4G	4b	12bb	4b	4b
.	12G	12B	12B 12d	12GG	12g	12dd]	12gg	12bb]	.	.	.	12gg	.	.
.	12G	12B	12B 12d	12GG	12g	12dd	12gg	12bb	.	.	.	12dd'	.	.
4G	12G	12B	12B 12d	4GG	4g	4dd	4gg	4bb	4r	4r	4r	8.dd	4r	4r
.	12G	12B	12B 12d	.	.	.	.	.	.	.	.	.	.	.
.	12G	12B	12B 12d	.	.	.	.	.	.	.	.	.	.	.
.	.	.	.	.	.	.	.	.	.	.	.	16bb	.	.
4FF#	12F#	12B	12A 12d#	2r	2ryy	2r	2ryy	2r	4F#	4F#	4dd#	12bb	4aa	4aa
.	12F#	12B	12A 12d#	.	.	.	.	.	.	.	.	12dd#X	.	.
.	12F#	12B	12A 12d#	.	.	.	.	.	.	.	.	12dd#'	.	.
4F#	12F#	12B	12A 12d#	.	.	.	.	.	4r	4r	4r	8.dd#	4r	4r
.	12F#	12B	12A 12d#	.	.	.	.	.	.	.	.	.	.	.
.	12F#	12B	12A 12d#	.	.	.	.	.	.	.	.	.	.	.
.	.	.	.	.	.	.	.	.	.	.	.	16bb	.	.
=35	=35	=35	=35	=35	=35	=35	=35	=35	=35	=35	=35	=35	=35	=35
4GG	12G	12B	12e	1r	1r	1r	1r	1r	4E	4E	8ee	12bb	4gg	4gg
.	12G	12B	12e	.	.	.	.	.	.	.	.	12gg	.	.
.	.	.	.	.	.	.	.	.	.	.	8r	.	.	.
.	12G	12B	12e	.	.	.	.	.	.	.	.	12ee'	.	.
4GG#	12B	12dn	12fn	.	.	.	.	.	4r	4r	4r	12bb'	4r	4r
.	12B	12d	12f	.	.	.	.	.	.	.	.	12ccc#'	.	.
.	12B	12d	12f	.	.	.	.	.	.	.	.	12dddn'	.	.
4AA	12A	12d	12f#	.	.	.	.	.	2r	2r	2r	12dd	2r	2r
.	12A	12d	12f#	.	.	.	.	.	.	.	.	12aa	.	.
.	12A	12d	12f#	.	.	.	.	.	.	.	.	12ff#'	.	.
4AA	12E	12c#	12g	.	.	.	.	.	.	.	.	12gg'	.	.
.	12E	12e	12e	.	.	.	.	.	.	.	.	12ee'	.	.
.	12E	12g	12c#	.	.	.	.	.	.	.	.	12cc#X'	.	.
=36	=36	=36	=36	=36	=36	=36	=36	=36	=36	=36	=36	=36	=36	=36
4D	4D	4f#	12d	1r	1r	1r	1r	1r	1r	1r	1r	4dd	1r	1r
.	.	.	12d'	.	.	.	.	.	.	.	.	.	.	.
.	.	.	12e'	.	.	.	.	.	.	.	.	.	.	.
4r	4r	4r	12f#'	.	.	.	.	.	.	.	.	4r	.	.
.	.	.	12g'	.	.	.	.	.	.	.	.	.	.	.
.	.	.	12a'	.	.	.	.	.	.	.	.	.	.	.
2r	2r	2r	12b'	.	.	.	.	.	.	.	.	2r	.	.
.	.	.	12cc#'	.	.	.	.	.	.	.	.	.	.	.
.	.	.	12dd'	.	.	.	.	.	.	.	.	.	.	.
.	.	.	12ee'	.	.	.	.	.	.	.	.	.	.	.
.	.	.	12ff#'	.	.	.	.	.	.	.	.	.	.	.
.	.	.	12aa'	.	.	.	.	.	.	.	.	.	.	.
=37	=37	=37	=37	=37	=37	=37	=37	=37	=37	=37	=37	=37	=37	=37
1r	1dd	12b'	12gg	1r	1r	1r	1r	1r	1r	1r	1r	1r	[1ddd	[1ddd
.	.	12b	12gg	.	.	.	.	.	.	.	.	.	.	.
.	.	12a	12ff#	.	.	.	.	.	.	.	.	.	.	.
.	.	.	8aaq	.	.	.	.	.	.	.	.	.	.	.
.	.	12b	12gg	.	.	.	.	.	.	.	.	.	.	.
.	.	12a	12ff#	.	.	.	.	.	.	.	.	.	.	.
.	.	12b'	12gg'	.	.	.	.	.	.	.	.	.	.	.
.	.	12a'	12ff#'	.	.	.	.	.	.	.	.	.	.	.
.	.	12a	12ff#	.	.	.	.	.	.	.	.	.	.	.
.	.	12g#	12ee#	.	.	.	.	.	.	.	.	.	.	.
.	.	12a	12ff#	.	.	.	.	.	.	.	.	.	.	.
.	.	12g#	12ee#	.	.	.	.	.	.	.	.	.	.	.
.	.	12a'	12ff#'	.	.	.	.	.	.	.	.	.	.	.
=38	=38	=38	=38	=38	=38	=38	=38	=38	=38	=38	=38	=38	=38	=38
1r	2b	12gn'	12een'	1r	1r	1r	1r	1r	1r	1r	1r	1r	1ddd]	1ddd]
.	.	12g	12ee	.	.	.	.	.	.	.	.	.	.	.
.	.	12f#	12dd#	.	.	.	.	.	.	.	.	.	.	.
.	.	12g	12ee	.	.	.	.	.	.	.	.	.	.	.
.	.	12f#	12dd#	.	.	.	.	.	.	.	.	.	.	.
.	.	12g'	12ee'	.	.	.	.	.	.	.	.	.	.	.
.	2a	12f#'	12ddn'	.	.	.	.	.	.	.	.	.	.	.
.	.	12f#	12dd	.	.	.	.	.	.	.	.	.	.	.
.	.	12e	12cc#	.	.	.	.	.	.	.	.	.	.	.
.	.	8gq	8eeq	.	.	.	.	.	.	.	.	.	.	.
.	.	12f#	12dd	.	.	.	.	.	.	.	.	.	.	.
.	.	12e	12cc#	.	.	.	.	.	.	.	.	.	.	.
.	.	12f#'	12dd'	.	.	.	.	.	.	.	.	.	.	.
=39	=39	=39	=39	=39	=39	=39	=39	=39	=39	=39	=39	=39	=39	=39
2G	4b	4g	12b	1r	1r	1r	1r	1r	1r	1r	1r	1r	12bb	12bb
.	.	.	12dd	.	.	.	.	.	.	.	.	.	12ddd	12ddd
.	.	.	12cc#	.	.	.	.	.	.	.	.	.	12ccc#	12ccc#
.	4r	4r	12ee	.	.	.	.	.	.	.	.	.	12eee	12eee
.	.	.	12dd	.	.	.	.	.	.	.	.	.	12ddd	12ddd
.	.	.	12b'	.	.	.	.	.	.	.	.	.	12bb'	12bb'
4A	4d	12f#'	12a'	.	.	.	.	.	.	.	.	.	12aa'	12aa'
.	.	12d'	12f#'	.	.	.	.	.	.	.	.	.	12ff#'	12ff#'
.	.	12f#'	12a'	.	.	.	.	.	.	.	.	.	12aa'	12aa'
4AA	4A	12e'	12g	.	.	.	.	.	.	.	.	.	12gg	12gg
.	.	12c#'	12e	.	.	.	.	.	.	.	.	.	12ee	12ee
.	.	12e'	12c#X'	.	.	.	.	.	.	.	.	.	12cc#X'	12cc#X'
=40	=40	=40	=40	=40	=40	=40	=40	=40	=40	=40	=40	=40	=40	=40
4D	4d	12d'	12d'	1r	1r	1r	1r	1r	1r	1r	1r	1r	4dd	4dd
.	.	12f#'	12f#'	.	.	.	.	.	.	.	.	.	.	.
.	.	12a'	12a'	.	.	.	.	.	.	.	.	.	.	.
4r	4r	12g#'	12g#'	.	.	.	.	.	.	.	.	.	4r	4r
.	.	12b'	12b'	.	.	.	.	.	.	.	.	.	.	.
.	.	12a'	12a'	.	.	.	.	.	.	.	.	.	.	.
2r	2r	12ccn'	12ccn'	.	.	.	.	.	.	.	.	.	2r	2r
.	.	12g#'	12g#'	.	.	.	.	.	.	.	.	.	.	.
.	.	12a'	12a'	.	.	.	.	.	.	.	.	.	.	.
.	.	12cc'	12cc'	.	.	.	.	.	.	.	.	.	.	.
.	.	12a'	12a'	.	.	.	.	.	.	.	.	.	.	.
.	.	12f#'	12f#'	.	.	.	.	.	.	.	.	.	.	.
=41	=41	=41	=41	=41	=41	=41	=41	=41	=41	=41	=41	=41	=41	=41
1r	12D	12d	12d	1r	1r	1r	1r	1r	1r	1r	1r	1r	1r	1r
.	12F#	12f#	12f#	.	.	.	.	.	.	.	.	.	.	.
.	12A	12a	12a	.	.	.	.	.	.	.	.	.	.	.
.	12G#	12g#	12g#	.	.	.	.	.	.	.	.	.	.	.
.	12B	12b	12b	.	.	.	.	.	.	.	.	.	.	.
.	12A	12a	12a	.	.	.	.	.	.	.	.	.	.	.
.	12c	12cc	12cc	.	.	.	.	.	.	.	.	.	.	.
.	12G#	12g#	12g#	.	.	.	.	.	.	.	.	.	.	.
.	12A	12a	12a	.	.	.	.	.	.	.	.	.	.	.
.	12c	12cc	12cc	.	.	.	.	.	.	.	.	.	.	.
.	12A	12a	12a	.	.	.	.	.	.	.	.	.	.	.
.	12F#	12f#	12f#	.	.	.	.	.	.	.	.	.	.	.
=42	=42	=42	=42	=42	=42	=42	=42	=42	=42	=42	=42	=42	=42	=42
12D	12D	12d	12d	12D	12dd	12dd	12dd	12aa	12D	12D	12d	12dd	12dd	12dd
12F#	12F#	12f#	12f#	12D	12dd	12dd	12dd	12aa	12F#	12F#	12f#	12ff#	12ff#	12ff#
12A	12A	12a	12a	12D	12dd	12dd	12dd	12aa	12A	12A	12a	12aa	12aa	12aa
12G#	12G#	12g#	12g#	12D	12dd	12dd	12dd	12aa	12G#	12G#	12g#	12gg#X	12gg#	12gg#
12B	12B	12b	12b	12D	12dd	12dd	12dd	12aa	12B	12B	12b	12bb	12bb	12bb
12A	12A	12a	12a	12D	12dd	12dd	12dd	12aa	12A	12A	12a	12aa	12aa	12aa
12c	12c	12dd	12dd	12D	12dd	12dd	12dd	12aa	12c	12c	12cc	12ccc	12ccc	12ccc
12A	12A	12ff#	12ff#	12D	12dd	12dd	12dd	12aa	12A	12A	12ff#	12aa	12aa	12aa
12F#	12F#	12aa	12aa	12D	12dd	12dd	12dd	12aa	12F#	12F#	12aa	12ff#	12ff#	12ff#
12D	12D	12a 12ff#	12ccc	12D	12dd	12dd	12dd	12aa	12D	12D	12ff#	12dd	12dd	12dd
12D	12D	12a 12ff#	12ccc	12D	12dd	12dd	12dd	12aa	12AA	12AA	12ff#	12ff#	12ff#	12ff#
12D	12D	12a 12ff#	12ccc	12D	12dd	12dd	12dd	12aa	12FF#	12FF#	12ff#	12aa	12aa	12aa
=43	=43	=43	=43	=43	=43	=43	=43	=43	=43	=43	=43	=43	=43	=43
8D`	8D`	8a`y 8ff#`	8d`y 8dd`y 8ccc`	8D`	8dd`	8dd`	8dd`y	8aa`	8DD`	8DD`	8ff#`y	8ccc`	8ccc`	8ccc`
8r	8r	8r	8r	8r	8r	8r	8ryy	8r	8r	8r	8ryy	8r	8r	8r
4r	4r	4r	4r	4r	4r	4r	4ryy	4r	4r	4r	4ryy	4r	4r	4r
2r	2r	2r	2r	2r	2r	2r	2ryy	2r	2r	2r	2ryy	2r	2r	2r
=44	=44	=44	=44	=44	=44	=44	=44	=44	=44	=44	=44	=44	=44	=44
4G	4G	12G	4g	1r	1r	1r	1r	1r	1r	1r	1r	1r	1r	1r
.	.	12B	.	.	.	.	.	.	.	.	.	.	.	.
.	.	12d	.	.	.	.	.	.	.	.	.	.	.	.
4r	4r	12G	8d'	.	.	.	.	.	.	.	.	.	.	.
.	.	12B	.	.	.	.	.	.	.	.	.	.	.	.
.	.	.	16r	.	.	.	.	.	.	.	.	.	.	.
.	.	12d	.	.	.	.	.	.	.	.	.	.	.	.
.	.	.	16b'	.	.	.	.	.	.	.	.	.	.	.
4G	4G	12G	4g	.	.	.	.	.	.	.	.	.	.	.
.	.	12B	.	.	.	.	.	.	.	.	.	.	.	.
.	.	12d	.	.	.	.	.	.	.	.	.	.	.	.
4r	4r	12G	8d'	.	.	.	.	.	.	.	.	.	.	.
.	.	12B	.	.	.	.	.	.	.	.	.	.	.	.
.	.	.	16r	.	.	.	.	.	.	.	.	.	.	.
.	.	12d	.	.	.	.	.	.	.	.	.	.	.	.
.	.	.	16gg'	.	.	.	.	.	.	.	.	.	.	.
=45	=45	=45	=45	=45	=45	=45	=45	=45	=45	=45	=45	=45	=45	=45
[2G	[2G	12e	4dd	1r	1r	1r	1r	1r	1r	1r	1r	1r	1r	1r
.	.	12g	.	.	.	.	.	.	.	.	.	.	.	.
.	.	12e	.	.	.	.	.	.	.	.	.	.	.	.
.	.	12f#	8.ccT	.	.	.	.	.	.	.	.	.	.	.
.	.	12a	.	.	.	.	.	.	.	.	.	.	.	.
.	.	12f#	.	.	.	.	.	.	.	.	.	.	.	.
.	.	.	32b	.	.	.	.	.	.	.	.	.	.	.
.	.	.	32cc	.	.	.	.	.	.	.	.	.	.	.
4G]	4G]	12g	8b	.	.	.	.	.	.	.	.	.	.	.
.	.	12b	.	.	.	.	.	.	.	.	.	.	.	.
.	.	.	8r	.	.	.	.	.	.	.	.	.	.	.
.	.	12g	.	.	.	.	.	.	.	.	.	.	.	.
4r	4r	12d	8.r	.	.	.	.	.	.	.	.	.	.	.
.	.	12B	.	.	.	.	.	.	.	.	.	.	.	.
.	.	12G	.	.	.	.	.	.	.	.	.	.	.	.
.	.	.	16ee'	.	.	.	.	.	.	.	.	.	.	.
=46	=46	=46	=46	=46	=46	=46	=46	=46	=46	=46	=46	=46	=46	=46
4c	4c	12e	4b	1r	1r	1r	1r	1r	1r	1r	1r	1r	1r	1r
.	.	12f#	.	.	.	.	.	.	.	.	.	.	.	.
.	.	12g#	.	.	.	.	.	.	.	.	.	.	.	.
4r	4r	12a	8a'	.	.	.	.	.	.	.	.	.	.	.
.	.	12e	.	.	.	.	.	.	.	.	.	.	.	.
.	.	.	16r	.	.	.	.	.	.	.	.	.	.	.
.	.	12c	.	.	.	.	.	.	.	.	.	.	.	.
.	.	.	16ee'	.	.	.	.	.	.	.	.	.	.	.
4B	4B	12d	4a	.	.	.	.	.	.	.	.	.	.	.
.	.	12e	.	.	.	.	.	.	.	.	.	.	.	.
.	.	12f#	.	.	.	.	.	.	.	.	.	.	.	.
4r	4r	12gn	8g'	.	.	.	.	.	.	.	.	.	.	.
.	.	12d	.	.	.	.	.	.	.	.	.	.	.	.
.	.	.	16r	.	.	.	.	.	.	.	.	.	.	.
.	.	12B	.	.	.	.	.	.	.	.	.	.	.	.
.	.	.	16d	.	.	.	.	.	.	.	.	.	.	.
=47	=47	=47	=47	=47	=47	=47	=47	=47	=47	=47	=47	=47	=47	=47
4F#	4D	12A	8cc'	1r	1r	1r	1r	1r	1r	1r	1r	1r	1r	1r
.	.	12d	.	.	.	.	.	.	.	.	.	.	.	.
.	.	.	16r	.	.	.	.	.	.	.	.	.	.	.
.	.	12a	.	.	.	.	.	.	.	.	.	.	.	.
.	.	.	16dd	.	.	.	.	.	.	.	.	.	.	.
4G	4D	12B	8b'	.	.	.	.	.	.	.	.	.	.	.
.	.	12d	.	.	.	.	.	.	.	.	.	.	.	.
.	.	.	16r	.	.	.	.	.	.	.	.	.	.	.
.	.	12g	.	.	.	.	.	.	.	.	.	.	.	.
.	.	.	16cc	.	.	.	.	.	.	.	.	.	.	.
4D	4D	12f#	8a	.	.	.	.	.	.	.	.	.	.	.
.	.	12a	.	.	.	.	.	.	.	.	.	.	.	.
.	.	.	8r	.	.	.	.	.	.	.	.	.	.	.
.	.	12f#	.	.	.	.	.	.	.	.	.	.	.	.
4r	4r	12d	4r	.	.	.	.	.	.	.	.	.	.	.
.	.	12c	.	.	.	.	.	.	.	.	.	.	.	.
.	.	12A	.	.	.	.	.	.	.	.	.	.	.	.
=48	=48	=48	=48	=48	=48	=48	=48	=48	=48	=48	=48	=48	=48	=48
4G	4G	12B-	4g	1r	1r	1r	1r	1r	1G	1G	1b-	1gg	1dd	1dd
.	.	12d	.	.	.	.	.	.	.	.	.	.	.	.
.	.	12g	.	.	.	.	.	.	.	.	.	.	.	.
4r	4r	12G	8d'	.	.	.	.	.	.	.	.	.	.	.
.	.	12B-	.	.	.	.	.	.	.	.	.	.	.	.
.	.	.	16r	.	.	.	.	.	.	.	.	.	.	.
.	.	12d	.	.	.	.	.	.	.	.	.	.	.	.
.	.	.	16b-'	.	.	.	.	.	.	.	.	.	.	.
4G	4G	12B-	4g	.	.	.	.	.	.	.	.	.	.	.
.	.	12d	.	.	.	.	.	.	.	.	.	.	.	.
.	.	12g	.	.	.	.	.	.	.	.	.	.	.	.
4r	4r	12G	8d'	.	.	.	.	.	.	.	.	.	.	.
.	.	12B-	.	.	.	.	.	.	.	.	.	.	.	.
.	.	.	16r	.	.	.	.	.	.	.	.	.	.	.
.	.	12d	.	.	.	.	.	.	.	.	.	.	.	.
.	.	.	16gg'	.	.	.	.	.	.	.	.	.	.	.
=49	=49	=49	=49	=49	=49	=49	=49	=49	=49	=49	=49	=49	=49	=49
2A	2c	12c	4ffn	1r	1r	1r	1r	1r	2A	2A	2cc	4ffn	4cc	4cc
.	.	12e-	.	.	.	.	.	.	.	.	.	.	.	.
.	.	12fn	.	.	.	.	.	.	.	.	.	.	.	.
.	.	12a	8.ee-T	.	.	.	.	.	.	.	.	8.ee-T	2ffn	2ffn
.	.	12cc	.	.	.	.	.	.	.	.	.	.	.	.
.	.	12f	.	.	.	.	.	.	.	.	.	.	.	.
.	.	.	32dd	.	.	.	.	.	.	.	.	32dd	.	.
.	.	.	32ee-	.	.	.	.	.	.	.	.	32ee-	.	.
2B-	4d	12dd	2dd	.	.	.	.	.	2B-	2B-	2fn	4dd	.	.
.	.	12b-	.	.	.	.	.	.	.	.	.	.	.	.
.	.	12f	.	.	.	.	.	.	.	.	.	.	.	.
.	4fn	12a-	.	.	.	.	.	.	.	.	.	4aa-	4ddd	4ddd
.	.	12f	.	.	.	.	.	.	.	.	.	.	.	.
.	.	12a-	.	.	.	.	.	.	.	.	.	.	.	.
=50	=50	=50	=50	=50	=50	=50	=50	=50	=50	=50	=50	=50	=50	=50
2E-	[1B-	12g	4ee-	1r	1r	1r	1r	1r	2E-	2E-	1b-	2gg	1ryy	2eee-
.	.	12b-	.	.	.	.	.	.	.	.	.	.	.	.
.	.	12a-	.	.	.	.	.	.	.	.	.	.	.	.
.	.	12g	8b-'	.	.	.	.	.	.	.	.	.	.	.
.	.	12b-	.	.	.	.	.	.	.	.	.	.	.	.
.	.	.	16r	.	.	.	.	.	.	.	.	.	.	.
.	.	12g	.	.	.	.	.	.	.	.	.	.	.	.
.	.	.	16bb-X'	.	.	.	.	.	.	.	.	.	.	.
2D	.	12b-	4ffn	.	.	.	.	.	2D	2D	.	2ffn	.	2bb-
.	.	12fn	.	.	.	.	.	.	.	.	.	.	.	.
.	.	12d	.	.	.	.	.	.	.	.	.	.	.	.
.	.	12b-	8b-'	.	.	.	.	.	.	.	.	.	.	.
.	.	12f	.	.	.	.	.	.	.	.	.	.	.	.
.	.	.	16r	.	.	.	.	.	.	.	.	.	.	.
.	.	12d	.	.	.	.	.	.	.	.	.	.	.	.
.	.	.	16bb-'	.	.	.	.	.	.	.	.	.	.	.
=51	=51	=51	=51	=51	=51	=51	=51	=51	=51	=51	=51	=51	=51	=51
2D-	2B-]	12fn	4ffn	1r	1r	1r	1r	1r	2D-	2D-	2ffn	2.bb-	2ffn	2ffn
.	.	12b-	.	.	.	.	.	.	.	.	.	.	.	.
.	.	12cc	.	.	.	.	.	.	.	.	.	.	.	.
.	.	12dd-	8b-'	.	.	.	.	.	.	.	.	.	.	.
.	.	12b-	.	.	.	.	.	.	.	.	.	.	.	.
.	.	.	16r	.	.	.	.	.	.	.	.	.	.	.
.	.	12f	.	.	.	.	.	.	.	.	.	.	.	.
.	.	.	16bb-X'	.	.	.	.	.	.	.	.	.	.	.
12C	4b-	12g	4een	.	.	.	.	.	4C	4C	4een	.	4gg	4gg
12C	.	12b-	.	.	.	.	.	.	.	.	.	.	.	.
12C	.	12g	.	.	.	.	.	.	.	.	.	.	.	.
12Fn	4cc	12a	4ee-	.	.	.	.	.	4Fn	4Fn	4ee-	4aa	4cc	4cc
12F	.	12cc	.	.	.	.	.	.	.	.	.	.	.	.
12F	.	12a	.	.	.	.	.	.	.	.	.	.	.	.
=52	=52	=52	=52	=52	=52	=52	=52	=52	=52	=52	=52	=52	=52	=52
12BB-	4fn	12b-	4dd	1r	1r	1r	1r	1r	4BB-	4BB-	4dd	4bb-	4ffn	4ffn
12BB-	.	12fn	.	.	.	.	.	.	.	.	.	.	.	.
12BB-	.	12d	.	.	.	.	.	.	.	.	.	.	.	.
12E-	4e-	12g	12cc	.	.	.	.	.	4r	4r	4cc	12gg	4ee-	4ee-
12E-	.	12e-	12ee-	.	.	.	.	.	.	.	.	12ee-	.	.
12E-	.	12c	12gg	.	.	.	.	.	.	.	.	12cc	.	.
12Fn	4f	12d	4b-	.	.	.	.	.	2r	2r	4b-	4b-X	4dd	4dd
12F	.	12f	.	.	.	.	.	.	.	.	.	.	.	.
12F	.	12b-	.	.	.	.	.	.	.	.	.	.	.	.
.	.	.	8ddq	.	.	.	.	.	.	.	.	8ddq	.	.
12FFn	4f	12e-	8.cc	.	.	.	.	.	.	.	8.a	8.cc	4a	4a
12FF	.	12f	.	.	.	.	.	.	.	.	.	.	.	.
12FF	.	12a	.	.	.	.	.	.	.	.	.	.	.	.
.	.	.	16b-	.	.	.	.	.	.	.	16b-	16b-	.	.
=53	=53	=53	=53	=53	=53	=53	=53	=53	=53	=53	=53	=53	=53	=53
2BB-	2.fn	12d	[2b-	1r	1r	1r	1r	1r	2.d	[1fn	4b-	2b-	4b-	4b-
.	.	12fn	.	.	.	.	.	.	.	.	.	.	.	.
.	.	12e-	.	.	.	.	.	.	.	.	.	.	.	.
.	.	12d	.	.	.	.	.	.	.	.	4r	.	4r	4r
.	.	12B-	.	.	.	.	.	.	.	.	.	.	.	.
.	.	12c	.	.	.	.	.	.	.	.	.	.	.	.
2AA-	.	12d	12b-]	.	.	.	.	.	.	.	2r	12b-	2r	2r
.	.	12e-	12cc'	.	.	.	.	.	.	.	.	12cc'	.	.
.	.	12f	12dd'	.	.	.	.	.	.	.	.	12dd'	.	.
.	4d	12f	12dd'	.	.	.	.	.	4c	.	.	12dd'	.	.
.	.	12d	12ee-'	.	.	.	.	.	.	.	.	12ee-'	.	.
.	.	12c	12ffn'	.	.	.	.	.	.	.	.	12ffn'	.	.
=54	=54	=54	=54	=54	=54	=54	=54	=54	=54	=54	=54	=54	=54	=54
2GG	2d	12Bn'	12ffn	1r	1r	1r	1r	1r	1Bn	1f]	1r	12ffn	1r	1r
.	.	12d'	12b	.	.	.	.	.	.	.	.	12b	.	.
.	.	12fn'	12b'	.	.	.	.	.	.	.	.	12b'	.	.
.	.	12a-'	[4b	.	.	.	.	.	.	.	.	[4b	.	.
.	.	12f'	.	.	.	.	.	.	.	.	.	.	.	.
.	.	12e-'	.	.	.	.	.	.	.	.	.	.	.	.
2G	2Bn	12d'	12b]	.	.	.	.	.	.	.	.	12b]	.	.
.	.	12B'	12aa-'	.	.	.	.	.	.	.	.	12aa-	.	.
.	.	12c'	12gg'	.	.	.	.	.	.	.	.	12gg	.	.
.	.	12d'	12ff'	.	.	.	.	.	.	.	.	12ff'	.	.
.	.	12e-'	12ee-'	.	.	.	.	.	.	.	.	12ee-'	.	.
.	.	12f'	12dd'	.	.	.	.	.	.	.	.	12dd'	.	.
=55	=55	=55	=55	=55	=55	=55	=55	=55	=55	=55	=55	=55	=55	=55
.	.	.	8ddq	.	.	.	.	.	.	.	.	8ddq	.	.
4E-	4c	12g	12cc	1r	1r	1r	1r	1r	4c	4e-	1r	12cc	1r	1r
.	.	12g	12b	.	.	.	.	.	.	.	.	12b	.	.
.	.	12g	12cc	.	.	.	.	.	.	.	.	12cc	.	.
.	.	.	8ee-q	.	.	.	.	.	.	.	.	8ee-q	.	.
4BBn	4fn	12g	12dd	.	.	.	.	.	4B	4B	.	12dd	.	.
.	.	12g	12cc	.	.	.	.	.	.	.	.	12cc	.	.
.	.	12g	12dd	.	.	.	.	.	.	.	.	12dd	.	.
.	.	.	8ffnq	.	.	.	.	.	.	.	.	8ffnq	.	.
4C	4e-	12g	12ee-X	.	.	.	.	.	4c	4c	.	12ee-X	.	.
.	.	12g	12dd	.	.	.	.	.	.	.	.	12dd	.	.
.	.	12g	12cc	.	.	.	.	.	.	.	.	12cc	.	.
.	.	8aq	.	.	.	.	.	.	.	.	.	.	.	.
4C#	12g	12g	12b-	.	.	.	.	.	4c#	4c#	.	12b-	.	.
.	12f#	12f#X	12a	.	.	.	.	.	.	.	.	12a	.	.
.	12g	12g	12g	.	.	.	.	.	.	.	.	12g	.	.
=56	=56	=56	=56	=56	=56	=56	=56	=56	=56	=56	=56	=56	=56	=56
12D'	12f#X'	12f#X'	12f#X'	[12D	12dd	12dd	12dd	[12aa	4d	4d	4a	4f#X	2ddd	2ddd
12D'	12d'	12d'	12a'	12D]	12dd	12dd	12dd	12aa]	.	.	.	.	.	.
12D'	12f#'	12f#'	12dd'	12D	12dd	12dd	12dd	12aa	.	.	.	.	.	.
12D'	12a'	12a'	12ff#X'	12D	12dd	12dd	12dd	12aa	4cn	4cn	4ff#	4aa	.	.
12D'	12dd'	12dd'	12aa'	12D	12dd	12dd	12dd	12aa	.	.	.	.	.	.
12D'	12cc'	12cc'	12dd'	12D	12dd	12dd	12dd	12aa	.	.	.	.	.	.
.	.	.	8aaq	.	.	.	.	.	.	.	.	.	.	.
12D'	12b-'	12b-'	12gg'	12D	12g	12gg	12gg	12gg	4B-	4B-	2gg	2bb-	2ccc#	2ccc#
12D'	12a'	12a'	12ff#'	12D	12g	12gg	12gg	12gg	.	.	.	.	.	.
12D'	12b-'	12b-'	12gg'	12D	12g	12gg	12gg	12gg	.	.	.	.	.	.
12D'	12c#'	12c#'	12bb-'	12D	12g	12gg	12gg	12gg	4G	4G	.	.	.	.
12D'	12b-'	12b-'	12gg'	12D	12g	12gg	12gg	12gg	.	.	.	.	.	.
12D'	12g'	12g'	12cc#'	12D	12g	12gg	12gg	12gg	.	.	.	.	.	.
=57	=57	=57	=57	=57	=57	=57	=57	=57	=57	=57	=57	=57	=57	=57
12D	12f#'	12f#'	12dd'	12D	12dd	12dd	12dd	12aa	4d	4d	2ff#	2aa	2ddd	2ddd
12D	12d'	12d'	12ff#'	12D	12dd	12dd	12dd	12aa	.	.	.	.	.	.
12D	12f#'	12f#'	12aa'	12D	12dd	12dd	12dd	12aa	.	.	.	.	.	.
12D	12a'	12a'	12ddd'	12D	12dd	12dd	12dd	12aa	4c	4c	.	.	.	.
12D	12dd'	12dd'	12aa'	12D	12dd	12dd	12dd	12aa	.	.	.	.	.	.
12D	12ccn'	12cc'	12ff#'	12D	12dd	12dd	12dd	12aa	.	.	.	.	.	.
.	.	.	8aaq	.	.	.	.	.	.	.	.	.	.	.
12D	12b-'	12b-'	12gg'	12D	12g	12gg	12gg	12gg	4B-	4B-	2gg	2bb-	2ccc#	2ccc#
12D	12a'	12a'	12ff#'	12D	12g	12gg	12gg	12gg	.	.	.	.	.	.
12D	12b-'	12b-'	12gg'	12D	12g	12gg	12gg	12gg	.	.	.	.	.	.
12D	12c#'	12c#'	12bb-'	12D	12g	12gg	12gg	12gg	4G	4G	.	.	.	.
12D	12b-'	12b-'	12gg'	12D	12g	12gg	12gg	12gg	.	.	.	.	.	.
12D	12g'	12g'	12cc#'	12D	12g	12gg	12gg	12gg	.	.	.	.	.	.
=58	=58	=58	=58	=58	=58	=58	=58	=58	=58	=58	=58	=58	=58	=58
4D	4f#	4f#	12dd'	4D	4dd	4dd	4dd	4aa	4D	4D	4ff#	4aa	4ddd	4ddd
.	.	.	12ff#'	.	.	.	.	.	.	.	.	.	.	.
.	.	.	12aa'	.	.	.	.	.	.	.	.	.	.	.
4r	4r	4r	12gg'	4r	4r	4r	4ryy	4r	4r	4r	4ryy	4r	4r	4r
.	.	.	12ff#'	.	.	.	.	.	.	.	.	.	.	.
.	.	.	12een'	.	.	.	.	.	.	.	.	.	.	.
4D	4d	4A 4f#	12dd'	4D	4dd	4dd	4dd	4aa	4D	4D	4ff#	4aa	4ddd	4ddd
.	.	.	12ff#'	.	.	.	.	.	.	.	.	.	.	.
.	.	.	12aa'	.	.	.	.	.	.	.	.	.	.	.
4r	4r	4r	12gg'	4r	4r	4r	4ryy	4r	4r	4r	4ryy	4r	4r	4r
.	.	.	12ff#'	.	.	.	.	.	.	.	.	.	.	.
.	.	.	12ee'	.	.	.	.	.	.	.	.	.	.	.
=59	=59	=59	=59	=59	=59	=59	=59	=59	=59	=59	=59	=59	=59	=59
4D	4D	4A 4f#	12dd'	4D	4dd	4dd	4dd	4aa	4D	4D	4ff#	4aa	4ddd	4ddd
.	.	.	12ff#'	.	.	.	.	.	.	.	.	.	.	.
.	.	.	12aa'	.	.	.	.	.	.	.	.	.	.	.
4r	4r	4r	12gg'	4r	4r	4r	4ryy	4r	4r	4r	4ryy	4r	4r	4r
.	.	.	12ff#'	.	.	.	.	.	.	.	.	.	.	.
.	.	.	12ee'	.	.	.	.	.	.	.	.	.	.	.
2r	2r	2r	12dd'	2r	2r	2r	2ryy	2r	2r	2r	2ryy	2r	2r	2r
.	.	.	12ff#'	.	.	.	.	.	.	.	.	.	.	.
.	.	.	12aa'	.	.	.	.	.	.	.	.	.	.	.
.	.	.	12gg'	.	.	.	.	.	.	.	.	.	.	.
.	.	.	12ff#'	.	.	.	.	.	.	.	.	.	.	.
.	.	.	12ee'	.	.	.	.	.	.	.	.	.	.	.
=60	=60	=60	=60	=60	=60	=60	=60	=60	=60	=60	=60	=60	=60	=60
1r	1r	1r	12dd'	1r	1r	1r	1r	1r	1r	1r	1r	1r	1r	1r
.	.	.	12ff#'	.	.	.	.	.	.	.	.	.	.	.
.	.	.	12aa'	.	.	.	.	.	.	.	.	.	.	.
.	.	.	12gg'	.	.	.	.	.	.	.	.	.	.	.
.	.	.	12ff#'	.	.	.	.	.	.	.	.	.	.	.
.	.	.	12ee'	.	.	.	.	.	.	.	.	.	.	.
.	.	.	12dd'	.	.	.	.	.	.	.	.	.	.	.
.	.	.	12cc#'	.	.	.	.	.	.	.	.	.	.	.
.	.	.	12ccn'	.	.	.	.	.	.	.	.	.	.	.
.	.	.	12b'	.	.	.	.	.	.	.	.	.	.	.
.	.	.	12b-'	.	.	.	.	.	.	.	.	.	.	.
.	.	.	12a'	.	.	.	.	.	.	.	.	.	.	.
=61	=61	=61	=61	=61	=61	=61	=61	=61	=61	=61	=61	=61	=61	=61
4G	4B 4d	12G	4g	1r	1r	1r	1r	1r	1ryy	4G	1r	1r	1r	1r
.	.	12B	.	.	.	.	.	.	.	.	.	.	.	.
.	.	12d	.	.	.	.	.	.	.	.	.	.	.	.
4r	4r	12G	8d'	.	.	.	.	.	.	8D'	.	.	.	.
.	.	12B	.	.	.	.	.	.	.	.	.	.	.	.
.	.	.	16r	.	.	.	.	.	.	16r	.	.	.	.
.	.	12d	.	.	.	.	.	.	.	.	.	.	.	.
.	.	.	16b'	.	.	.	.	.	.	16B'	.	.	.	.
4G	4B 4d	12G	4g	.	.	.	.	.	.	4G	.	.	.	.
.	.	12B	.	.	.	.	.	.	.	.	.	.	.	.
.	.	12d	.	.	.	.	.	.	.	.	.	.	.	.
4r	4r	12G	8d'	.	.	.	.	.	.	8D'	.	.	.	.
.	.	12B	.	.	.	.	.	.	.	.	.	.	.	.
.	.	.	16r	.	.	.	.	.	.	16r	.	.	.	.
.	.	12d	.	.	.	.	.	.	.	.	.	.	.	.
.	.	.	16gg	.	.	.	.	.	.	16g'	.	.	.	.
=62	=62	=62	=62	=62	=62	=62	=62	=62	=62	=62	=62	=62	=62	=62
[2G	4e	12e	4dd	1r	1r	1r	1r	1r	1ryy	4d	1r	1r	1ryy	2r
.	.	12g	.	.	.	.	.	.	.	.	.	.	.	.
.	.	12e	.	.	.	.	.	.	.	.	.	.	.	.
.	4f#	12f#	8.ccT	.	.	.	.	.	.	8.cT	.	.	.	.
.	.	12a	.	.	.	.	.	.	.	.	.	.	.	.
.	.	12f#	.	.	.	.	.	.	.	.	.	.	.	.
.	.	.	32b	.	.	.	.	.	.	32B	.	.	.	.
.	.	.	32cc	.	.	.	.	.	.	32c	.	.	.	.
8G]	8g	12g	8b	.	.	.	.	.	.	8B	.	.	.	4r
.	.	12d	.	.	.	.	.	.	.	.	.	.	.	.
8r	8r	.	8r	.	.	.	.	.	.	8r	.	.	.	.
.	.	12B	.	.	.	.	.	.	.	.	.	.	.	.
4r	4r	8G	8.r	.	.	.	.	.	.	4r	.	.	.	8.r
.	.	8r	.	.	.	.	.	.	.	.	.	.	.	.
.	.	.	16ee'	.	.	.	.	.	.	.	.	.	.	16ee
=63	=63	=63	=63	=63	=63	=63	=63	=63	=63	=63	=63	=63	=63	=63
1r	4fn	12d	4b	1r	1r	1r	1r	1r	1r	1r	1r	1r	1ryy	4b
.	.	12fn	.	.	.	.	.	.	.	.	.	.	.	.
.	.	12g#	.	.	.	.	.	.	.	.	.	.	.	.
.	8e'	8a	8cc'	.	.	.	.	.	.	.	.	.	.	8cc'
.	8r	8r	16r	.	.	.	.	.	.	.	.	.	.	16r
.	.	.	16ccc'	.	.	.	.	.	.	.	.	.	.	16ccc
.	4a	12d	4ff#	.	.	.	.	.	.	.	.	.	.	4ff#
.	.	12a	.	.	.	.	.	.	.	.	.	.	.	.
.	.	12cc	.	.	.	.	.	.	.	.	.	.	.	.
.	8g'	8b	8gg'	.	.	.	.	.	.	.	.	.	.	8gg'
.	16r	16r	16r	.	.	.	.	.	.	.	.	.	.	16r
.	16B	16dd	16gg#	.	.	.	.	.	.	.	.	.	.	16gg#
=64	=64	=64	=64	=64	=64	=64	=64	=64	=64	=64	=64	=64	=64	=64
1r	8c'	8ee'	8aa'	1r	1r	1r	1r	1r	1r	1r	1r	1r	1ryy	8aa
.	16r	16r	16r	.	.	.	.	.	.	.	.	.	.	16r
.	16d	16dd	16bb	.	.	.	.	.	.	.	.	.	.	16bb
.	8e'	8cc'	8ccc'	.	.	.	.	.	.	.	.	.	.	8ccc'
.	16r	16r	16r	.	.	.	.	.	.	.	.	.	.	16r
.	16c	16a	16ff#	.	.	.	.	.	.	.	.	.	.	16ff#
.	8B	8b	8ggn	.	.	.	.	.	.	.	.	.	.	8ggn
.	8r	8r	8r	.	.	.	.	.	.	.	.	.	.	8r
.	4r	4r	8.r	.	.	.	.	.	.	.	.	.	.	4r
.	.	.	16G'	.	.	.	.	.	.	.	.	.	.	.
=65	=65	=65	=65	=65	=65	=65	=65	=65	=65	=65	=65	=65	=65	=65
4BB	4G	4d	4fn	1r	1r	1r	1r	1r	1r	1r	1r	1r	1r	1r
8C'	8G'	8c'	8e'	.	.	.	.	.	.	.	.	.	.	.
8r	8r	8r	16r	.	.	.	.	.	.	.	.	.	.	.
.	.	.	16g'	.	.	.	.	.	.	.	.	.	.	.
4Fn	4D	4G	4B	.	.	.	.	.	.	.	.	.	.	.
8E'	8E'	8c'	8c'	.	.	.	.	.	.	.	.	.	.	.
8r	8r	8r	16r	.	.	.	.	.	.	.	.	.	.	.
.	.	.	16G'	.	.	.	.	.	.	.	.	.	.	.
=66	=66	=66	=66	=66	=66	=66	=66	=66	=66	=66	=66	=66	=66	=66
1r	4r	[1cc	[1ee	1r	1r	1r	1r	1r	1r	1r	1ryy	2r	1r	1r
.	8.r	.	.	.	.	.	.	.	.	.	.	.	.	.
.	16A'	.	.	.	.	.	.	.	.	.	.	.	.	.
.	[2f#X	.	.	.	.	.	.	.	.	.	.	4r	.	.
.	.	.	.	.	.	.	.	.	.	.	.	8.r	.	.
.	.	.	.	.	.	.	.	.	.	.	.	16a	.	.
=67	=67	=67	=67	=67	=67	=67	=67	=67	=67	=67	=67	=67	=67	=67
1r	2f#]	2cc]	2ee]	1r	1r	1r	1r	1r	1r	1r	1ryy	12aa	1r	1r
.	.	.	.	.	.	.	.	.	.	.	.	12bb	.	.
.	.	.	.	.	.	.	.	.	.	.	.	12gg#'	.	.
.	.	.	.	.	.	.	.	.	.	.	.	12aa	.	.
.	.	.	.	.	.	.	.	.	.	.	.	12bb	.	.
.	.	.	.	.	.	.	.	.	.	.	.	12gg#'	.	.
.	2b	[2b	[2dd	.	.	.	.	.	.	.	.	12aa'z	.	.
.	.	.	.	.	.	.	.	.	.	.	.	12bb'	.	.
.	.	.	.	.	.	.	.	.	.	.	.	12ccc'	.	.
.	.	.	.	.	.	.	.	.	.	.	.	12ddd	.	.
.	.	.	.	.	.	.	.	.	.	.	.	12aa	.	.
.	.	.	.	.	.	.	.	.	.	.	.	12ff#'	.	.
=68	=68	=68	=68	=68	=68	=68	=68	=68	=68	=68	=68	=68	=68	=68
1r	2e	2b]	2dd]	1r	1r	1r	1r	1r	1r	1r	1ryy	12ggn	1r	1r
.	.	.	.	.	.	.	.	.	.	.	.	12aa	.	.
.	.	.	.	.	.	.	.	.	.	.	.	12ff#'	.	.
.	.	.	.	.	.	.	.	.	.	.	.	12gg	.	.
.	.	.	.	.	.	.	.	.	.	.	.	12aa	.	.
.	.	.	.	.	.	.	.	.	.	.	.	12ff#'	.	.
.	2a	[2a	[2cc	.	.	.	.	.	.	.	.	12gg'z	.	.
.	.	.	.	.	.	.	.	.	.	.	.	12aa'	.	.
.	.	.	.	.	.	.	.	.	.	.	.	12bb'	.	.
.	.	.	.	.	.	.	.	.	.	.	.	12ccc	.	.
.	.	.	.	.	.	.	.	.	.	.	.	12gg	.	.
.	.	.	.	.	.	.	.	.	.	.	.	12ee'	.	.
=69	=69	=69	=69	=69	=69	=69	=69	=69	=69	=69	=69	=69	=69	=69
1r	1d	2a]	2cc]	1r	1r	1r	1r	1r	1r	1r	1ryy	12ff#	1r	1r
.	.	.	.	.	.	.	.	.	.	.	.	12gg	.	.
.	.	.	.	.	.	.	.	.	.	.	.	12ee'	.	.
.	.	.	.	.	.	.	.	.	.	.	.	12ff#	.	.
.	.	.	.	.	.	.	.	.	.	.	.	12aa	.	.
.	.	.	.	.	.	.	.	.	.	.	.	12dd'z	.	.
.	.	4g	4b	.	.	.	.	.	.	.	.	12gg	.	.
.	.	.	.	.	.	.	.	.	.	.	.	12bb	.	.
.	.	.	.	.	.	.	.	.	.	.	.	12dd'z	.	.
.	.	4f#	12cc	.	.	.	.	.	.	.	.	12cc	.	.
.	.	.	12aa	.	.	.	.	.	.	.	.	12aa	.	.
.	.	.	12cc'	.	.	.	.	.	.	.	.	12cc'z	.	.
=70	=70	=70	=70	=70	=70	=70	=70	=70	=70	=70	=70	=70	=70	=70
4G	4g	4g	12b	1r	1r	1r	1r	1r	1r	1r	1ryy	12b	1r	1r
.	.	.	12gg	.	.	.	.	.	.	.	.	12gg	.	.
.	.	.	12dd#	.	.	.	.	.	.	.	.	12dd#	.	.
4C	4c	2g	12ff#	.	.	.	.	.	.	.	.	12ff#	.	.
.	.	.	12ee	.	.	.	.	.	.	.	.	12ee	.	.
.	.	.	12cc	.	.	.	.	.	.	.	.	12cc	.	.
4D	4d	.	12b'	.	.	.	.	.	.	.	.	12b'	.	.
.	.	.	12ddn'	.	.	.	.	.	.	.	.	12ddn'	.	.
.	.	.	12g'	.	.	.	.	.	.	.	.	12g'	.	.
4DD	4D	4f#	12cc	.	.	.	.	.	.	.	.	12cc	.	.
.	.	.	12a	.	.	.	.	.	.	.	.	12a	.	.
.	.	.	12f#'	.	.	.	.	.	.	.	.	12f#'	.	.
=71	=71	=71	=71	=71	=71	=71	=71	=71	=71	=71	=71	=71	=71	=71
12GG	12G	12B 12d	4G 4g	12GG	12g	12g	12b	12gg	1B	1d	4g	4gg	4gg	4gg
12GG	12B	12B 12d	.	12GG	12g	12g	12b	12gg	.	.	.	.	.	.
12GG	12d	12B 12d	.	12GG	12g	12g	12b	12gg	.	.	.	.	.	.
12GG	12G	12B 12d	8d'	12GG	12g	12g	12b	12gg	.	.	8d	8dd	8dd'	8dd'
12GG	12B	12B 12d	.	12GG	12g	12g	12b	12gg	.	.	.	.	.	.
.	.	.	16r	.	.	.	.	.	.	.	16ryy	16r	16r	16r
12GG	12d	12B 12d	.	12GG	12g	12g	12b	12gg	.	.	.	.	.	.
.	.	.	16b'	.	.	.	.	.	.	.	16b'y	16bb'	16bb'	16bb'
12GG	12G	12B 12d	4g	12GG	12g	12g	12b	12gg	.	.	4g	4gg	4gg	4gg
12GG	12B	12B 12d	.	12GG	12g	12g	12b	12gg	.	.	.	.	.	.
12GG	12d	12B 12d	.	12GG	12g	12g	12b	12gg	.	.	.	.	.	.
12GG	12G	12B 12d	8d	12GG	12g	12g	12b	12gg	.	.	8d	8dd	8dd'	8dd'
12GG	12B	12B 12d	.	12GG	12g	12g	12b	12gg	.	.	.	.	.	.
.	.	.	16r	.	.	.	.	.	.	.	16r	16r	16r	16r
12GG	12d	12B 12d	.	12GG	12g	12g	12b	12gg	.	.	.	.	.	.
.	.	.	16gg'	.	.	.	.	.	.	.	16gg	16gg	16ggg'	16ggg'
=72	=72	=72	=72	=72	=72	=72	=72	=72	=72	=72	=72	=72	=72	=72
12GG	12e	12G 12e	4dd	12GG	12dd	12dd	12gg	12gg	4c	4e	4dd	4dd	4ddd	4ddd
12GG	12g	12G 12e	.	12GG	12dd	12dd	12gg	12gg	.	.	.	.	.	.
12GG	12e	12G 12e	.	12GG	12dd	12dd	12gg	12gg	.	.	.	.	.	.
12GG	12f#	12A 12f#	8.ccT	12GG	12dd	12dd	12dd	12aa	4A	4f#	8.ccT	8.ccT	8.cccT	8.cccT
12GG	12a	12A 12f#	.	12GG	12dd	12dd	12dd	12aa	.	.	.	.	.	.
12GG	12f#	12A 12f#	.	12GG	12dd	12dd	12dd	12aa	.	.	.	.	.	.
.	.	.	32b	.	.	.	.	.	.	.	32b	32b	32bb	32bb
.	.	.	32cc	.	.	.	.	.	.	.	32cc	32cc	32ccc	32ccc
8GG	8d	8B 8g	8b	8GG	8g	8dd	8b	8gg	8B	8g	8b	8b	8bb	8bb
8r	8r	8r	8r	8r	8ryy	8r	8ryy	8r	8ryy	8r	8r	8r	8r	8r
4r	4r	8.r	8.r	4r	4ryy	4r	4ryy	4r	4ryy	4r	4r	4r	8.r	8.r
.	.	16gg	16bb	.	.	.	.	.	.	.	.	.	16gg	16bb
=73	=73	=73	=73	=73	=73	=73	=73	=73	=73	=73	=73	=73	=73	=73
1r	1r	8ff#'	8aa'	2r	1r	1r	1r	1r	1r	1r	2ryy	2r	8ff#	8aa
.	.	16r	16r	.	.	.	.	.	.	.	.	.	16r	16r
.	.	16ee	16gg	.	.	.	.	.	.	.	.	.	16ee	16gg
.	.	8dd'	8ff#'	.	.	.	.	.	.	.	.	.	8dd	8ff#
.	.	16r	16r	.	.	.	.	.	.	.	.	.	16r	16r
.	.	16cc	16ee	.	.	.	.	.	.	.	.	.	16cc	16ee
.	.	8b'	8dd	4r	.	.	.	.	.	.	4ryy	4r	8b	8dd
.	.	8r	8r	.	.	.	.	.	.	.	.	.	8r	8r
.	.	4r	4r	4GG	.	.	.	.	.	.	8.ryy	8.r	4r	4r
.	.	.	.	.	.	.	.	.	.	.	16ee	16gg	.	.
=74	=74	=74	=74	=74	=74	=74	=74	=74	=74	=74	=74	=74	=74	=74
1r	1r	2r	2r	2r	1r	1r	1r	1r	1r	1r	8dd'y	8ff#'	1r	1r
.	.	.	.	.	.	.	.	.	.	.	16r	16r	.	.
.	.	.	.	.	.	.	.	.	.	.	16cc	16ee	.	.
.	.	.	.	.	.	.	.	.	.	.	8b'y	8dd'	.	.
.	.	.	.	.	.	.	.	.	.	.	16r	16r	.	.
.	.	.	.	.	.	.	.	.	.	.	16a	16cc	.	.
.	.	4r	4r	4r	.	.	.	.	.	.	8g	8b	.	.
.	.	.	.	.	.	.	.	.	.	.	8r	8r	.	.
.	.	8r	8.r	4GG	.	.	.	.	.	.	4r	4r	.	.
.	.	16r	.	.	.	.	.	.	.	.	.	.	.	.
.	.	16cc	16ee	.	.	.	.	.	.	.	.	.	.	.
=75	=75	=75	=75	=75	=75	=75	=75	=75	=75	=75	=75	=75	=75	=75
1r	1r	8b	8dd	8.r	1r	1r	8ryy	8r	8.r	8.r	8.ryy	8.r	8.ryy	8.r
.	.	8r	8r	.	.	.	16ryy	16r	.	.	.	.	.	.
.	.	.	.	16D	.	.	16dd	16aa	16d	16d	16a	16ff#	16cc	16ccc
.	.	8r	8.r	8GG	.	.	8gg	8bb	8G	8G	8b	8gg	8b	8bb
.	.	16r	.	8r	.	.	8ryy	8r	8r	8r	8ryy	8r	8ryy	8r
.	.	16cc	16ee	.	.	.	.	.	.	.	.	.	.	.
.	.	8b	8dd	8.r	.	.	8ryy	8r	8.r	8.r	8.ryy	8.r	8.ryy	8.r
.	.	8r	8r	.	.	.	16ryy	16r	.	.	.	.	.	.
.	.	.	.	16D	.	.	16dd	16aa	16d	16d	16a	16ff#	16cc	16ccc
.	.	8.r	8.r	8GG	.	.	8gg	8bb	8G	8G	8b	8gg	8b	8bb
.	.	.	.	8r	.	.	8ryy	8r	8r	8r	8ryy	8r	8ryy	8r
.	.	16cc	16ee	.	.	.	.	.	.	.	.	.	.	.
=76	=76	=76	=76	=76	=76	=76	=76	=76	=76	=76	=76	=76	=76	=76
1r	8.r	8b	8dd	1r	1r	1r	1r	1r	2ryy	2r	1r	1r	1r	1r
.	.	8r	8r	.	.	.	.	.	.	.	.	.	.	.
.	16e	.	.	.	.	.	.	.	.	.	.	.	.	.
.	8d	8r	8.r	.	.	.	.	.	.	.	.	.	.	.
.	8r	16r	.	.	.	.	.	.	.	.	.	.	.	.
.	.	16cc	16ee	.	.	.	.	.	.	.	.	.	.	.
.	2r	8b	8dd	.	.	.	.	.	8.ryy	8.r	.	.	.	.
.	.	8r	8r	.	.	.	.	.	.	.	.	.	.	.
.	.	.	.	.	.	.	.	.	16c	16e	.	.	.	.
.	.	8r	8.r	.	.	.	.	.	8B	8d	.	.	.	.
.	.	16r	.	.	.	.	.	.	8ryy	8r	.	.	.	.
.	.	16cc	16ee	.	.	.	.	.	.	.	.	.	.	.
=77	=77	=77	=77	=77	=77	=77	=77	=77	=77	=77	=77	=77	=77	=77
1r	1r	8b	8dd	1r	1r	1r	1r	1r	1r	1r	1r	1r	1r	1r
.	.	8r	8r	.	.	.	.	.	.	.	.	.	.	.
.	.	4r	4r	.	.	.	.	.	.	.	.	.	.	.
.	.	2r	2r	.	.	.	.	.	.	.	.	.	.	.
=78	=78	=78	=78	=78	=78	=78	=78	=78	=78	=78	=78	=78	=78	=78
1r	1r	4cc	4ee	1r	1r	1r	1r	1r	1r	1r	1r	1r	2ryy	2r
.	.	4r	4r	.	.	.	.	.	.	.	.	.	.	.
.	.	2r	2r	.	.	.	.	.	.	.	.	.	4ccc	4eee
.	.	.	.	.	.	.	.	.	.	.	.	.	4ryy	4r
=79	=79	=79	=79	=79	=79	=79	=79	=79	=79	=79	=79	=79	=79	=79
1r	1r	4cc	4ee	1r	1r	1r	1r	1r	1r	1r	1r	1r	2ryy	2r
.	.	4r	4r	.	.	.	.	.	.	.	.	.	.	.
.	.	2r	2r	.	.	.	.	.	.	.	.	.	4ccc	4eee
.	.	.	.	.	.	.	.	.	.	.	.	.	4ryy	4r
=80	=80	=80	=80	=80	=80	=80	=80	=80	=80	=80	=80	=80	=80	=80
4r	4r	4r	4r	2r	2r	2r	2ryy	2r	4CC	4CC	4ryy	4r	4r	4r
8.r	8.r	8r	8.r	.	.	.	.	.	8.r	8.r	8.ryy	8.r	8.r	8.r
.	.	16r	.	.	.	.	.	.	.	.	.	.	.	.
16C	16c	16cc	16ee	.	.	.	.	.	16c	16c	16cc	16ee	16eee	16eee
8.D	8.d	8.bt	8.ddT	8.D	8.dd	8.dd	8.gg	8.bb	8.d	8.d	8.bt	8.ddTy	8.dddT	8.dddT
16D	16d	16a	16cc	16D	16dd	16dd	16gg	16bb	16d	16d	16a	16cc	16ccc	16ccc
8.D	8.d	8.gT	8.bt	8.D	8.dd	8.dd	8.dd	8.aa	8.D	8.D	8.gT	8.bty	8.bbt	8.bbt
16D	16d	16f#	16a	16D	16dd	16dd	16dd	16aa	16D	16D	16f#	16a	16aa	16aa
=81	=81	=81	=81	=81	=81	=81	=81	=81	=81	=81	=81	=81	=81	=81
12G	[12d	12B	4g	12GG	2g	2dd	2gg	2bb	12G	[12B	4g	4g	4gg	4gg
12G	12d]	12d	.	12GG	.	.	.	.	12G	12B]	.	.	.	.
12G	12d	12g	.	12GG	.	.	.	.	12G	12B	.	.	.	.
12G	12d	12B	8.r	12GG	.	.	.	.	12G	12B	8.ryy	8.r	8.r	8.r
12G	12d	12d	.	12GG	.	.	.	.	12G	12B	.	.	.	.
12G	12d	12g	.	12GG	.	.	.	.	12G	12B	.	.	.	.
.	.	.	16g	.	.	.	.	.	.	.	16g	16g	16gg	16gg
12D	12A 12f#	12c	8a	12D	2dd	2dd	2dd	2aa	12F#	12c	8f#	8a	8aa	8aa
12D	12A 12f#	12d	.	12D	.	.	.	.	12F#	12c	.	.	.	.
.	.	.	16r	.	.	.	.	.	.	.	16ryy	16r	16r	16r
12D	12A 12f#	12f#	.	12D	.	.	.	.	12F#	12c	.	.	.	.
.	.	.	16b	.	.	.	.	.	.	.	16g	16b	16bb	16bb
12D	12A 12f#	12c	8cc	12D	.	.	.	.	12F#	12c	8a	8cc	8ccc	8ccc
12D	12A 12f#	12d	.	12D	.	.	.	.	12F#	12c	.	.	.	.
.	.	.	16r	.	.	.	.	.	.	.	16ryy	16r	16r	16r
12D	12A 12f#	12f#	.	12D	.	.	.	.	12F#	12c	.	.	.	.
.	.	.	16dd	.	.	.	.	.	.	.	16b	16dd	16ddd	16ddd
=82	=82	=82	=82	=82	=82	=82	=82	=82	=82	=82	=82	=82	=82	=82
12G	12B 12g	12B	8b	12GG	2g	2dd	2gg	2bb	12G	12B	4g	8b	8bb	8bb
12G	12B 12g	12d	.	12GG	.	.	.	.	12G	12B	.	.	.	.
.	.	.	16r	.	.	.	.	.	.	.	.	16r	16r	16r
12G	12B 12g	12g	.	12GG	.	.	.	.	12G	12B	.	.	.	.
.	.	.	16gg	.	.	.	.	.	.	.	.	16gg	16ggg	16ggg
12G	12B 12g	12B	8dd	12GG	.	.	.	.	12G	12B	8.ryy	8dd	8ddd	8ddd
12G	12B 12g	12d	.	12GG	.	.	.	.	12G	12B	.	.	.	.
.	.	.	16r	.	.	.	.	.	.	.	.	16r	16r	16r
12G	12B 12g	12g	.	12GG	.	.	.	.	12G	12B	.	.	.	.
.	.	.	16b	.	.	.	.	.	.	.	16g	16b	16bb	16bb
12D	12A 12f#	12c	8cc	12D	2dd	2dd	2dd	2aa	12F#	12c	8a	8cc	8ccc	8ccc
12D	12A 12f#	12d	.	12D	.	.	.	.	12F#	12c	.	.	.	.
.	.	.	16r	.	.	.	.	.	.	.	16ryy	16r	16r	16r
12D	12A 12f#	12f#	.	12D	.	.	.	.	12F#	12c	.	.	.	.
.	.	.	16a	.	.	.	.	.	.	.	16a	16a	16aa	16aa
12D	12A 12f#	12c	8dd	12D	.	.	.	.	12F#	12c	8f#	8dd	8ddd	8ddd
12D	12A 12f#	12d	.	12D	.	.	.	.	12F#	12c	.	.	.	.
.	.	.	16r	.	.	.	.	.	.	.	16ryy	16r	16r	16r
12D	12A 12f#	12f#	.	12D	.	.	.	.	12F#	12c	.	.	.	.
.	.	.	16f#	.	.	.	.	.	.	.	16a	16f#	16ff#	16ff#
=83	=83	=83	=83	=83	=83	=83	=83	=83	=83	=83	=83	=83	=83	=83
4G	4B 4g	12B	4g	4GG	4g	4dd	4b	4gg	4G	4B	4g	4g	4gg	4gg
.	.	12d	.	.	.	.	.	.	.	.	.	.	.	.
.	.	12g	.	.	.	.	.	.	.	.	.	.	.	.
4r	4r	12B	8d	4r	4ryy	4r	4ryy	4r	4ryy	4r	4r	8d	8dd	8dd
.	.	12d	.	.	.	.	.	.	.	.	.	.	.	.
.	.	.	16r	.	.	.	.	.	.	.	.	8r	8r	8r
.	.	12g	.	.	.	.	.	.	.	.	.	.	.	.
.	.	.	16g	.	.	.	.	.	.	.	.	.	.	.
4D	4A 4f#	12c	8a	2r	2ryy	2r	2ryy	2r	2ryy	2r	2ryy	2r	2r	2r
.	.	12d	.	.	.	.	.	.	.	.	.	.	.	.
.	.	.	16r	.	.	.	.	.	.	.	.	.	.	.
.	.	12f#	.	.	.	.	.	.	.	.	.	.	.	.
.	.	.	16b	.	.	.	.	.	.	.	.	.	.	.
4r	4r	12c	8cc	.	.	.	.	.	.	.	.	.	.	.
.	.	12d	.	.	.	.	.	.	.	.	.	.	.	.
.	.	.	16r	.	.	.	.	.	.	.	.	.	.	.
.	.	12f#	.	.	.	.	.	.	.	.	.	.	.	.
.	.	.	16dd	.	.	.	.	.	.	.	.	.	.	.
=84	=84	=84	=84	=84	=84	=84	=84	=84	=84	=84	=84	=84	=84	=84
4G	4B 4g	12B	8b	1r	1r	1r	1r	1r	1r	1r	1r	1r	1r	1r
.	.	12d	.	.	.	.	.	.	.	.	.	.	.	.
.	.	.	16r	.	.	.	.	.	.	.	.	.	.	.
.	.	12g	.	.	.	.	.	.	.	.	.	.	.	.
.	.	.	16gg	.	.	.	.	.	.	.	.	.	.	.
4r	4r	12B	8dd	.	.	.	.	.	.	.	.	.	.	.
.	.	12d	.	.	.	.	.	.	.	.	.	.	.	.
.	.	.	16r	.	.	.	.	.	.	.	.	.	.	.
.	.	12g	.	.	.	.	.	.	.	.	.	.	.	.
.	.	.	16b	.	.	.	.	.	.	.	.	.	.	.
4D	4A 4f#	12c	8cc	.	.	.	.	.	.	.	.	.	.	.
.	.	12d	.	.	.	.	.	.	.	.	.	.	.	.
.	.	.	16r	.	.	.	.	.	.	.	.	.	.	.
.	.	12f#	.	.	.	.	.	.	.	.	.	.	.	.
.	.	.	16a	.	.	.	.	.	.	.	.	.	.	.
4r	4r	12c	8dd	.	.	.	.	.	.	.	.	.	.	.
.	.	12d	.	.	.	.	.	.	.	.	.	.	.	.
.	.	.	16r	.	.	.	.	.	.	.	.	.	.	.
.	.	12f#	.	.	.	.	.	.	.	.	.	.	.	.
.	.	.	16f#	.	.	.	.	.	.	.	.	.	.	.
=85	=85	=85	=85	=85	=85	=85	=85	=85	=85	=85	=85	=85	=85	=85
4G	4B 4g	12B	4g	1r	1r	1r	1r	1r	2r	2r	2ryy	2r	2r	2r
.	.	12d	.	.	.	.	.	.	.	.	.	.	.	.
.	.	12g	.	.	.	.	.	.	.	.	.	.	.	.
4r	4r	12B	8.r	.	.	.	.	.	.	.	.	.	.	.
.	.	12d	.	.	.	.	.	.	.	.	.	.	.	.
.	.	12g	.	.	.	.	.	.	.	.	.	.	.	.
.	.	.	16b	.	.	.	.	.	.	.	.	.	.	.
4D	4A 4f#	12c	8a'	.	.	.	.	.	4D	4D	4cc	4ff#	4aa	4aa
.	.	12d	.	.	.	.	.	.	.	.	.	.	.	.
.	.	.	8r	.	.	.	.	.	.	.	.	.	.	.
.	.	12f#	.	.	.	.	.	.	.	.	.	.	.	.
4r	4r	12c	8.r	.	.	.	.	.	4r	4r	4ryy	4r	4r	4r
.	.	12d	.	.	.	.	.	.	.	.	.	.	.	.
.	.	12f#	.	.	.	.	.	.	.	.	.	.	.	.
.	.	.	16dd	.	.	.	.	.	.	.	.	.	.	.
=86	=86	=86	=86	=86	=86	=86	=86	=86	=86	=86	=86	=86	=86	=86
4G	4B 4g	12B	8b'	1r	1r	1r	1r	1r	4G	4G	4b	4gg	4bb	4bb
.	.	12d	.	.	.	.	.	.	.	.	.	.	.	.
.	.	.	8r	.	.	.	.	.	.	.	.	.	.	.
.	.	12g	.	.	.	.	.	.	.	.	.	.	.	.
4r	4r	12B	8.r	.	.	.	.	.	4r	4r	4ryy	4r	4r	4r
.	.	12d	.	.	.	.	.	.	.	.	.	.	.	.
.	.	12g	.	.	.	.	.	.	.	.	.	.	.	.
.	.	.	16b	.	.	.	.	.	.	.	.	.	.	.
4D	4A 4f#	12c	8a'	.	.	.	.	.	4D	4D	4cc	4ff#	4aa	4aa
.	.	12d	.	.	.	.	.	.	.	.	.	.	.	.
.	.	.	8r	.	.	.	.	.	.	.	.	.	.	.
.	.	12f#	.	.	.	.	.	.	.	.	.	.	.	.
4r	4r	12c	8.r	.	.	.	.	.	4r	4r	4ryy	4r	4r	4r
.	.	12d	.	.	.	.	.	.	.	.	.	.	.	.
.	.	12f#	.	.	.	.	.	.	.	.	.	.	.	.
.	.	.	16d	.	.	.	.	.	.	.	.	.	.	.
=87	=87	=87	=87	=87	=87	=87	=87	=87	=87	=87	=87	=87	=87	=87
4GG	4B 4g	12B	8g'	1r	1r	1r	1r	1r	4G	4G	4b	4gg	4bb	4bb
.	.	12d	.	.	.	.	.	.	.	.	.	.	.	.
.	.	.	8r	.	.	.	.	.	.	.	.	.	.	.
.	.	12g	.	.	.	.	.	.	.	.	.	.	.	.
4r	4r	12B	4r	.	.	.	.	.	4r	4r	4ryy	4r	4r	4r
.	.	12d	.	.	.	.	.	.	.	.	.	.	.	.
.	.	12g	.	.	.	.	.	.	.	.	.	.	.	.
8GG	8D 8B	8B	8d	.	.	.	.	.	8G	8G	8b	8gg	8gg	8gg
8r	8r	8r	8r	.	.	.	.	.	8r	8r	8ryy	8r	8r	8r
8GG	8D 8B	8B	8d	.	.	.	.	.	8G	8G	8b	8gg	8dd	8dd
8r	8r	8r	8r	.	.	.	.	.	8r	8r	8ryy	8r	8r	8r
=88	=88	=88	=88	=88	=88	=88	=88	=88	=88	=88	=88	=88	=88	=88
8GG	8D 8B	8B	8d	1r	1r	1r	1r	1r	8G	8G	8b	8gg	8b	8b
8r	8r	8r	8r	.	.	.	.	.	8r	8r	8ryy	8r	8r	8r
4r	4r	4r	4r	.	.	.	.	.	4r	4r	4ryy	4r	4r	4r
2r	2r	2r	2r	.	.	.	.	.	2r	2r	2ryy	2r	2r	2r
==89	==89	==89	==89	==89	==89	==89	==89	==89	==89	==89	==89	==89	==89	==89
*-	*-	*-	*-	*-	*-	*-	*-	*-	*-	*-	*-	*-	*-	*-
!!!CDT: 1732/03/31/-1809/05/31/
!!!CNT: Austrian
!!!PPR: Ernst Eulenburg, Ltd.
!!!PPP: London
!!!PDT: 1880///
!!!AGN: symphony
!!!AST: classical, orchestral
!!!YOR: Ernst Praetorius, editor
!!!RDT: 1995 February 15
!!!YER: March 2012
!!!EEV: 2.0
!!!EFL: 2/48
!!!ENC: Frances Bennion
!!!EED: W.B. Hewlett
!!!ONB: Converted from MuseData Fall 2011 by Andreas Kornstaedt
!!!ONB: Manual editing 2012/02/22/ by Craig Stuart Sapp
!!!YEC: Copyright 1996,2012 Center for Computer Assisted Research in the Humanities
!!!YEM: Rights to all derivative electronic formats reserved.
!!!YEM: Refer to licensing agreement for further details.
